!!!!SEGMENT: pl-kk--kk-i-470--005_raszek-waclaw--missa-toni-c-agnus-dei.krn
!!!id: 17xx:1890
!!!COM: Raszek, Wacław
!!!COM-rism: pe30020314
!!!CDT: >1848->1848
!!!CNT:
!!!OTL: Missa toni C – Agnus Dei
!!!PDT:
!!!SMS-siglum: PL-Kk
!!!SMS-shelfmark: Kk.I.470
!!!NIFC-rismID: 1001139773
!!!URL-scan: http://repozytorium.nifc.pl/skany/pl-kk-nut--i-470
!!!ONB-nifc: UWAGA: części Mszy: 1. Kyrie, 2. Gloria, 3. Credo, 4. Sanctus, 5. Agnus Dei, 6. Dona nobis
!!!SMS-variant: Violino Secundo: PL-KK KK/I/470 005: 0039
!!!SMS-altvar: Violino Secundo: PL-KK KK/I/470 005: 0045
**kern	**fba	**dynam	**kern	**dynam	**kern	**dynam	**kern	**dynam	**kern	**dynam	**kern	**text	**kern	**text	**kern	**text	**kern	**text	**kern	**dynam	**kern	**dynam	**kern	**dynam	**kern	**kern	**kern	**kern
*part16	*part16	*part16	*part15	*part15	*part14	*part14	*part13	*part13	*part12	*part12	*part11	*part11	*part10	*part10	*part9	*part9	*part8	*part8	*part7	*part7	*part6	*part6	*part5	*part5	*part4	*part3	*part2	*part1
*staff16	*	*	*staff15	*	*staff14	*	*staff13	*	*staff12	*	*staff11	*staff11	*staff10	*staff10	*staff9	*staff9	*staff8	*staff8	*staff7	*	*staff6	*	*staff5	*	*staff4	*staff3	*staff2	*staff1
*I"Organo.	*	*	*I"Viola oblig:	*	*I"Violino Secondo.	*	*I"Violino Primo.	*	*I"Violino Principale.	*	*I"Baſso.	*	*I"Tenore.	*	*I"Alto.	*	*I"Canto.	*	*I"Timpano in C.	*	*I"Clarino 2do in C.	*	*I"Clarino Primo in C.	*	*I"Corno II	*I"Corno I	*I"Oboe II	*I"Oboe I
*I'Org.	*	*	*I'Va	*	*I'V-no II	*	*I'Vn I	*	*I'Vn I	*	*I'B.	*	*I'T.	*	*I'A.	*	*I'C.	*	*I'Timp.	*	*I'Clno II in C	*	*I'Clno I in C	*	*I'C. II	*I'C. I	*I'Ob. II	*I'Ob
*clefF4	*	*	*clefC3	*	*clefG2	*	*clefG2	*	*clefG2	*	*clefF4	*	*clefC4	*	*clefC3	*	*clefC1	*	*clefF4	*	*clefG2	*	*clefG2	*	*clefG2	*clefG2	*clefG2	*clefG2
*	*	*	*	*	*	*	*	*	*	*	*	*	*	*	*	*	*	*	*	*	*	*	*	*	*ITrd4c7	*ITrd4c7	*	*
*k[b-e-a-]	*	*	*k[b-e-a-]	*	*k[b-e-a-]	*	*k[b-e-a-]	*	*k[b-e-a-]	*	*k[b-e-a-]	*	*k[b-e-a-]	*	*k[b-e-a-]	*	*k[b-e-a-]	*	*k[b-e-a-]	*	*k[b-e-a-]	*	*k[b-e-a-]	*	*k[b-e-a-]	*k[b-e-a-]	*k[b-e-a-]	*k[b-e-a-]
*M3/4	*	*	*M3/4	*	*M3/4	*	*M3/4	*	*M3/4	*	*M3/4	*	*M3/4	*	*M3/4	*	*M3/4	*	*M3/4	*	*M3/4	*	*M3/4	*	*M3/4	*M3/4	*M3/4	*M3/4
*	*	*	*	*	*	*	*	*	*	*below	*	*	*	*	*	*	*	*	*	*	*	*	*	*	*	*	*	*
=1	=1	=1	=1	=1	=1	=1	=1	=1	=1	=1	=1	=1	=1	=1	=1	=1	=1	=1	=1	=1	=1	=1	=1	=1	=1	=1	=1	=1
*2\right	*	*	*	*	*	*	*	*	*	*	*2\right	*	*2\right	*	*2\right	*	*2\right	*	*	*	*	*	*	*	*	*	*	*
!	!	!	!	!	!	!	!	!	!	!	!	!	!	!	!	!	!	!	!LO:N:vis=00	!	!	!	!	!	!	!	!	!
!LO:TX:rj:a:t=Solo.	!	!	!	!	!LO:TX:a:t=Problem&colon; źródło&colon; skan nr 0039	!	!	!	!	!	!LO:TX:a:t=ada(gio) T&colon;	!	!LO:TX:a:t=ada(gio)	!	!	!	!LO:TX:a:t=ada(gio)	!	!	!	!	!	!	!	!	!	!	!
!LO:TX:rj:a:t=ada(gio)	!	!	!LO:TX:a:t=ada(gio)	!	!LO:TX:a:t=ada(gio)	!LO:DY:a	!LO:TX:a:t=ada(gio)	!LO:DY:a	!LO:TX:a:t=ada(gio)	!LO:DY:a	!	!	!	!	!LO:TX:a:t=ada(gio)	!	!	!	!LO:TX:a:t=adao&colon;	!	!LO:rj:TX:a:t=ada(gio)	!LO:DY:a	!LO:TX:a:t=ada(gio)	!	!	!	!	!
2c\	-	mf	2G/	mf	2c/	mf	2e-/	mf	2e-/	mf	2c\	A-	2c\	A-	2g\	A-	2ee-\	A-	0.r	.	2G/	p	2g/	p	2.ryy	2.ryy	2.ryy	2.ryy
.	.	.	.	.	.	.	.	.	.	.	.	.	.	.	.	.	8qff/	.	.	.	.	.	.	.	.	.	.	.
4c\	.	.	4G/	.	4c/	.	4e-/	.	4e-/	.	4c\	-gnus	4c\	-gnus	4g\	-gnus	4ee-\	-gnus	.	.	4G/	.	4g/	.	.	.	.	.
=2	=2	=2	=2	=2	=2	=2	=2	=2	=2	=2	=2	=2	=2	=2	=2	=2	=2	=2	=2	=2	=2	=2	=2	=2	=2	=2	=2	=2
4Bn\	6 5	.	4G/	.	4d/	.	4f/	.	4f/	.	4Bn\	De-	4d\	De-	4g\	De-	4ff\	De-	.	.	4G/	.	4g/	.	2.ryy	2.ryy	2.ryy	2.ryy
!	!	!	!	!	!	!	!LO:TX:a:t=P:problem: mixed beam	!	!LO:TX:a:t=P:problem: mixed beam	!	!	!	!	!	!	!	!	!	!	!	!	!	!	!	!	!	!	!
4c\	.	.	4G/	.	8c/L	.	8e-/L	.	8e-/L	.	4c\	-i	4c\	-i	4g\	-i	4ee-\	-i	.	.	4G/	.	4g/	.	.	.	.	.
!	!	!	!	!	!LO:TX:b:t=|:problem	!	!LO:TX:a:t=|:problem	!	!LO:TX:a:t=|:problem	!	!	!	!	!	!	!	!	!	!	!	!	!	!	!	!	!	!	!
.	.	.	.	.	8g/	p	8gg\	p	8gg\	p	.	.	.	.	.	.	.	.	.	.	.	.	.	.	.	.	.	.
!	!	!	!	!LO:DY:rj	!LO:TX:b:t=|:problem	!	!LO:TX:a:t=|:problem	!	!LO:TX:a:t=|:problem	!	!	!	!	!	!	!	!	!	!	!	!	!	!	!	!	!	!	!
4r	.	.	4C/	p	8e-/	.	8ee-\	.	8ee-\	.	4r	.	4r	.	4r	.	4r	.	.	.	4r	.	4r	.	.	.	.	.
!	!	!	!	!	!LO:TX:b:t=|:problem	!	!LO:TX:a:t=|:problem	!	!LO:TX:a:t=|:problem	!	!	!	!	!	!	!	!	!	!	!	!	!	!	!	!	!	!	!
.	.	.	.	.	8c/J	.	8cc\J	.	8cc\J	.	.	.	.	.	.	.	.	.	.	.	.	.	.	.	.	.	.	.
=3	=3	=3	=3	=3	=3	=3	=3	=3	=3	=3	=3	=3	=3	=3	=3	=3	=3	=3	=3	=3	=3	=3	=3	=3	=3	=3	=3	=3
4r	.	.	4G/	.	(8Bn/L	.	(8bn\L	.	(8bn\L	.	4r	.	4r	.	4r	.	4r	.	.	.	4r	.	4r	.	2.ryy	2.ryy	2.ryy	2.ryy
.	.	.	.	.	8d/J)	.	8dd\J)	.	8dd\J)	.	.	.	.	.	.	.	.	.	.	.	.	.	.	.	.	.	.	.
4r	.	.	4C/	.	4c/	.	4cc\	.	4cc\	.	4r	.	4r	.	4r	.	4r	.	.	.	4r	.	4r	.	.	.	.	.
4c\	.	.	4G/	mf	4c/	.	4e-/	.	4e-/	mf	4c\	qui	4c\	qui	4g\	qui	4ee-\	qui	.	.	4G/	.	4g/	.	.	.	.	.
=4	=4	=4	=4	=4	=4	=4	=4	=4	=4	=4	=4	=4	=4	=4	=4	=4	=4	=4	=4	=4	=4	=4	=4	=4	=4	=4	=4	=4
!	!	!	!	!	!	!LO:DY:a	!	!LO:DY:a	!	!	!	!	!	!	!	!	!	!	!	!	!	!	!	!	!	!	!	!
4Bn\	6 5	.	4G/	.	4d/	mf	4f/	mf	4f/	.	4Bn\	tol-	4d\	tol-	4g\	tol-	4ff\	tol-	.	.	4G/	.	4g/	.	2.ryy	2.ryy	2.ryy	2.ryy
!	!	!	!	!	!	!	!LO:TX:a:t=P:problem: mixed beam	!	!LO:TX:a:t=P:problem: mixed beam	!	!	!	!	!	!	!	!	!	!	!	!	!	!	!	!	!	!	!
4c\	.	.	4G/	.	8c/L	p	8e-/L	p	8e-/L	p	4c\	-lis	4c\	-lis	4g\	-lis	4ee-\	-lis	.	.	4G/	.	4g/	.	.	.	.	.
!	!	!	!	!	!LO:TX:b:t=|:problem	!	!LO:TX:a:t=|:problem	!	!	!	!	!	!	!	!	!	!	!	!	!	!	!	!	!	!	!	!	!
.	.	.	.	.	8g/	.	8gg\	.	8gg\	.	.	.	.	.	.	.	.	.	.	.	.	.	.	.	.	.	.	.
!	!	!	!	!LO:DY:rj	!LO:TX:b:t=|:problem	!	!LO:TX:a:t=|:problem	!	!	!	!	!	!	!	!	!	!	!	!	!	!	!	!	!	!	!	!	!
4r	.	.	4C/	p	8e-/	.	8ee-X\	.	8ee-X\	.	4r	.	4r	.	4r	.	4r	.	.	.	4r	.	4r	.	.	.	.	.
!	!	!	!	!	!LO:TX:b:t=|:problem	!	!LO:TX:a:t=|:problem	!	!	!	!	!	!	!	!	!	!	!	!	!	!	!	!	!	!	!	!	!
.	.	.	.	.	8c/J	.	8cc\J	.	8cc\J	.	.	.	.	.	.	.	.	.	.	.	.	.	.	.	.	.	.	.
!	!	!	!LO:LB:g=original	!	!	!	!	!	!	!	!	!	!LO:LB:g=original	!	!	!	!	!	!	!	!	!	!	!	!	!	!	!
=5	=5	=5	=5	=5	=5	=5	=5	=5	=5	=5	=5	=5	=5	=5	=5	=5	=5	=5	=5	=5	=5	=5	=5	=5	=5	=5	=5	=5
2.r	.	.	4G/	.	(8Bn/L	.	(8bn\L	.	(8bn\L	.	2.r	.	2.r	.	2.r	.	2.r	.	2.r	.	2.r	.	2.r	.	2.ryy	2.ryy	2.ryy	2.ryy
.	.	.	.	.	8d/J)	.	8dd\J)	.	8dd\J)	.	.	.	.	.	.	.	.	.	.	.	.	.	.	.	.	.	.	.
.	.	.	4C/	.	4c/	.	8cc\L	.	8cc\L	.	.	.	.	.	.	.	.	.	.	.	.	.	.	.	.	.	.	.
.	.	.	.	.	.	.	(8ccc~\	f	8ccc\	f	.	.	.	.	.	.	.	.	.	.	.	.	.	.	.	.	.	.
.	.	.	4r	.	4r	.	8ccc~\	.	8ccc\	.	.	.	.	.	.	.	.	.	.	.	.	.	.	.	.	.	.	.
.	.	.	.	.	.	.	8ccc~\J)	.	8ccc\J	.	.	.	.	.	.	.	.	.	.	.	.	.	.	.	.	.	.	.
!	!	!	!	!	!	!	!	!	!	!	!LO:LB:g=original	!	!	!	!LO:LB:g=original	!	!	!	!	!	!	!	!	!	!	!	!	!
=6	=6	=6	=6	=6	=6	=6	=6	=6	=6	=6	=6	=6	=6	=6	=6	=6	=6	=6	=6	=6	=6	=6	=6	=6	=6	=6	=6	=6
!LO:TX:a:t=T;	!	!	!	!	!	!	!	!	!	!	!	!	!	!	!	!	!	!	!	!	!	!LO:DY:a	!	!	!	!	!	!
8r	.	.	8r	.	16r	f	8ccc\L	.	8ccc\L	.	8r	.	8r	.	8r	.	8r	.	8r	f	8r	f	8r	.	2.ryy	2.ryy	2.ryy	2.ryy
.	.	.	.	.	16cc\LL	.	.	.	.	.	.	.	.	.	.	.	.	.	.	.	.	.	.	.	.	.	.	.
!	!	!	!	!	!	!	!LO:TX:a:t=|:problem	!	!	!	!	!	!	!	!	!	!	!	!	!	!	!	!	!	!	!	!	!
8A-X\L	6\	.	8A-X/	f	16dd\	.	8ff#X\	.	8ff#X\	.	8A-\	pec-	8c\	pec-	8f#\	pec-	8cc\	pec-	8C/L	.	8c/L	.	8cc\L	.	.	.	.	.
.	.	.	.	.	16ee-\JJ	.	.	.	.	.	.	.	.	.	.	.	.	.	.	.	.	.	.	.	.	.	.	.
!	!	!	!	!	!	!	!LO:TX:a:t=|:problem	!	!	!	!	!	!	!	!	!	!	!	!	!	!	!	!	!LO:DY:a	!	!	!	!
8A-\	.	.	8A-/L	.	(16ee-\LL	.	8ff#\	.	8ff#\	.	8A-\	-ca-	8c\	-ca-	8f#\	-ca-	8cc\	-ca-	8C/	.	8c/	.	8cc\	f	.	.	.	.
.	.	.	.	.	16dd\	.	.	.	.	.	.	.	.	.	.	.	.	.	.	.	.	.	.	.	.	.	.	.
!	!	!	!	!	!	!	!LO:TX:a:t=|:problem	!	!	!	!	!	!	!	!	!	!	!	!	!	!	!	!	!	!	!	!	!
8A-\	.	.	8A-/	.	16dd\	.	8ff#\	.	8ff#\	.	8A-\	-ta	8c\	-ta	8f#\	-ta	8cc\	-ta	8C/	.	8c/	.	8cc\	.	.	.	.	.
.	.	.	.	.	16cc\JJ)	.	.	.	.	.	.	.	.	.	.	.	.	.	.	.	.	.	.	.	.	.	.	.
!	!	!	!	!	!	!	!LO:TX:a:t=|:problem	!	!	!	!	!	!	!	!	!	!	!	!	!	!	!	!	!	!	!	!	!
8A-\	.	.	8A-/	.	(16ee-\LL	.	8ff#\	.	8ff#\	.	4A-\	mun-	4c\	mun-	4f#\	mun-	4cc\	mun-	8C/	.	8c/	.	8cc\	.	.	.	.	.
.	.	.	.	.	16dd\	.	.	.	.	.	.	.	.	.	.	.	.	.	.	.	.	.	.	.	.	.	.	.
!	!	!	!	!	!	!	!LO:TX:a:t=|:problem	!	!	!	!	!	!	!	!	!	!	!	!	!	!	!	!	!	!	!	!	!
8A-\J	.	.	8A-/J	.	16dd\	.	8ff#\J	.	8ff#\J	.	.	.	.	.	.	.	.	.	8C/J	.	8c/J	.	8dd\J	.	.	.	.	.
.	.	.	.	.	16cc\JJ)	.	.	.	.	.	.	.	.	.	.	.	.	.	.	.	.	.	.	.	.	.	.	.
!LO:LB:g=original	!	!	!	!	!LO:LB:g=original	!	!LO:LB:g=original	!	!	!	!	!	!	!	!	!	!	!	!	!	!	!	!LO:LB:g=original	!	!	!	!	!
=7	=7	=7	=7	=7	=7	=7	=7	=7	=7	=7	=7	=7	=7	=7	=7	=7	=7	=7	=7	=7	=7	=7	=7	=7	=7	=7	=7	=7
*	*	*	*	*	*	*	*2\right	*	*2\right	*	*	*	*	*	*	*	*	*	*	*	*	*	*2\right	*	*	*	*	*
!	!	!	!	!	!LO:TX:b:t=|:problem	!	!	!	!	!	!	!	!	!	!	!	!	!	!	!	!	!	!	!	!	!	!	!
4G\	n	.	4G/	.	8bn/L	.	2gg\	.	2gg\	.	2.G\	-di	2d\	-di	2.g\	-di	2.bn\	-di	2GG/	.	2.G/	.	2.dd\	.	2.ryy	2.ryy	2.ryy	2.ryy
!	!	!	!	!	!LO:TX:b:t=|:problem	!	!	!	!	!	!	!	!	!	!	!	!	!	!	!	!	!	!	!	!	!	!	!
.	.	.	.	.	8g/	.	.	.	.	.	.	.	.	.	.	.	.	.	.	.	.	.	.	.	.	.	.	.
!	!	!	!	!	!LO:TX:b:t=|:problem	!	!	!	!	!	!	!	!	!	!	!	!	!	!	!	!	!	!	!	!	!	!	!
4GG/	.	.	4g\	.	8d/	.	.	.	.	.	.	.	.	.	.	.	.	.	.	.	.	.	.	.	.	.	.	.
!	!	!	!	!	!LO:TX:b:t=|:problem	!	!	!	!	!	!	!	!	!	!	!	!	!	!	!	!	!	!	!	!	!	!	!
.	.	.	.	.	8Bn/J	.	.	.	.	.	.	.	.	.	.	.	.	.	.	.	.	.	.	.	.	.	.	.
!	!	!	!	!	!LO:TX:b:t=|:problem	!	!	!	!	!	!	!	!	!	!	!	!	!	!	!	!	!	!	!	!	!	!	!
4Fn\	_	.	4f\	.	4G/	.	4r	.	4r	.	.	.	4r	.	.	.	.	.	4r	.	.	.	.	.	.	.	.	.
!	!	!	!	!	!	!	!	!	!	!	!	!	!	!	!	!	!LO:LB:g=original	!	!	!	!LO:LB:g=original	!	!	!	!	!	!	!
=8	=8	=8	=8	=8	=8	=8	=8	=8	=8	=8	=8	=8	=8	=8	=8	=8	=8	=8	=8	=8	=8	=8	=8	=8	=8	=8	=8	=8
!	!	!	!	!	!LO:TX:b:t=|:problem	!	!	!	!	!	!	!	!	!	!	!	!	!	!LO:TX:a:t=33.	!	!	!	!	!	!	!	!	!
!	!	!	!	!	!	!	!	!	!	!	!	!	!	!	!	!	!	!	!	!	!LO:N:vis=00	!	!LO:N:vis=00	!	!	!	!	!
4En\	6	.	4en\	.	16c/LL	.	8r	.	8r	.	(4En\	mi-	2c\	mi-	2g\	mi-	(4.cc\	mi-	2.r	.	0.r	.	0.r	.	2.ryy	2.ryy	2.ryy	2.ryy
.	.	.	.	.	(16cc\	.	.	.	.	.	.	.	.	.	.	.	.	.	.	.	.	.	.	.	.	.	.	.
!	!	!	!	!	!	!	!LO:TX:a:t=|:problem	!	!	!	!	!	!	!	!	!	!	!	!	!	!	!	!	!	!	!	!	!
.	.	.	.	.	16bn\	.	8gg\L	.	8gg\L	.	.	.	.	.	.	.	.	.	.	.	.	.	.	.	.	.	.	.
.	.	.	.	.	16cc\JJ)	.	.	.	.	.	.	.	.	.	.	.	.	.	.	.	.	.	.	.	.	.	.	.
!	!	!	!	!	!LO:TX:b:t=|:problem	!	!LO:TX:a:t=|:problem	!	!	!	!	!	!	!	!	!	!	!	!	!	!	!	!	!	!	!	!	!
4C/	n	.	4g\	.	4c/	.	8een\	.	8een\	.	4C/)	.	.	.	.	.	.	.	.	.	.	.	.	.	.	.	.	.
!	!	!	!	!	!	!	!LO:TX:a:t=|:problem	!	!	!	!	!	!	!	!	!	!	!	!	!	!	!	!	!	!	!	!	!
.	.	.	.	.	.	.	8dd-X\	.	8dd-X\	.	.	.	.	.	.	.	8dd-X\)	.	.	.	.	.	.	.	.	.	.	.
!	!	!	!	!	!	!	!LO:TX:a:t=|:problem	!	!	!	!LO:TX:a:t=|:problem	!	!	!	!	!	!	!	!	!	!	!	!	!	!	!	!	!
4E\	6 -5	.	4c/	.	8r	.	8cc\	.	8cc\	.	4E\	-se-	4c\	-se-	4g\	-se-	8cc\L	-se-	.	.	.	.	.	.	.	.	.	.
!	!	!	!	!	!	!	!LO:TX:a:t=|:problem	!	!	!	!	!	!	!	!	!	!	!	!	!	!	!	!	!	!	!	!	!
.	.	.	.	.	8g/	.	8b-X\J	.	8b-X\J	.	.	.	.	.	.	.	8b-X\J	.	.	.	.	.	.	.	.	.	.	.
!	!	!	!	!	!	!	!	!	!LO:LB:g=original	!	!	!	!	!	!	!	!	!	!	!	!	!	!	!	!	!	!	!
=9	=9	=9	=9	=9	=9	=9	=9	=9	=9	=9	=9	=9	=9	=9	=9	=9	=9	=9	=9	=9	=9	=9	=9	=9	=9	=9	=9	=9
!	!	!	!	!	!LO:TX:b:t=|:problem	!	!LO:TX:b:t=|:problem	!	!LO:TX:b:t=|:problem	!	!	!	!	!	!	!	!	!	!	!	!	!	!	!	!	!	!	!
4F\	-	.	2.c/	.	16a-X/LL	.	16a-/LL	.	16a-/LL	.	(4F\	-re-	2c\	-re-	4c/	-re-	4a-\	-re-	2.r	.	.	.	.	.	2.ryy	2.ryy	2.ryy	2.ryy
.	.	.	.	.	(16f/	.	(16f/	.	(16f/	.	.	.	.	.	.	.	.	.	.	.	.	.	.	.	.	.	.	.
.	.	.	.	.	16en/	.	16en/	.	16en/	.	.	.	.	.	.	.	.	.	.	.	.	.	.	.	.	.	.	.
.	.	.	.	.	16f/JJ)	.	16f/JJ)	.	16f/JJ)	.	.	.	.	.	.	.	.	.	.	.	.	.	.	.	.	.	.	.
!	!	!	!	!	!LO:TX:b:t=|:problem	!	!LO:TX:b:t=|:problem	!	!LO:TX:b:t=|:problem	!	!	!	!	!	!	!	!	!	!	!	!	!	!	!	!	!	!	!
4A-\	6	.	.	.	16c/LL	.	16c/LL	.	16c/LL	.	4A-\)	.	.	.	4c/	-re	4f/	-re	.	.	.	.	.	.	.	.	.	.
.	.	.	.	.	(16f/	.	(16f/	.	(16f/	.	.	.	.	.	.	.	.	.	.	.	.	.	.	.	.	.	.	.
.	.	.	.	.	16en/	.	16en/	.	16en/	.	.	.	.	.	.	.	.	.	.	.	.	.	.	.	.	.	.	.
.	.	.	.	.	16f/JJ)	.	16f/JJ)	.	16f/JJ)	.	.	.	.	.	.	.	.	.	.	.	.	.	.	.	.	.	.	.
!	!	!	!	!	!LO:TX:b:t=|:problem	!	!LO:TX:b:t=|:problem	!	!LO:TX:b:t=|:problem	!	!LO:TX:a:t=|:problem	!	!	!	!	!	!	!	!	!	!	!	!	!	!	!	!	!
4F\	.	.	.	.	16A-/LL	.	16A-/LL	.	16A-/LL	.	4F\	-re	4c\	-re	4r	.	4r	.	.	.	.	.	.	.	.	.	.	.
.	.	.	.	.	(16f/	.	(16f/	.	(16f/	.	.	.	.	.	.	.	.	.	.	.	.	.	.	.	.	.	.	.
.	.	.	.	.	16en/	.	16en/	.	16e/	.	.	.	.	.	.	.	.	.	.	.	.	.	.	.	.	.	.	.
.	.	.	.	.	16f/JJ)	.	16f/JJ)	.	16f/JJ)	.	.	.	.	.	.	.	.	.	.	.	.	.	.	.	.	.	.	.
!	!	!	!LO:LB:g=original	!	!	!	!	!	!	!	!	!	!LO:LB:g=original	!	!	!	!	!	!	!	!	!	!	!	!	!	!	!
=10	=10	=10	=10	=10	=10	=10	=10	=10	=10	=10	=10	=10	=10	=10	=10	=10	=10	=10	=10	=10	=10	=10	=10	=10	=10	=10	=10	=10
!	!	!	!	!	!LO:TX:a:t=P:problem: mixed beam	!	!	!	!	!	!	!	!	!	!	!	!	!	!	!	!	!	!	!	!	!	!	!
!	!	!	!	!	!LO:TX:b:t=|:problem	!	!	!	!	!	!	!	!	!	!	!	!	!	!	!	!	!	!	!	!	!	!	!
4D/	6	.	4d\	.	16B-X/LL	.	8r	.	8r	.	4D/	mi-	2B-\	mi-	2fn\	mi-	4.b-\	mi-	2.r	.	.	.	.	.	2.ryy	2.ryy	2.ryy	2.ryy
.	.	.	.	.	(16b-\	.	.	.	.	.	.	.	.	.	.	.	.	.	.	.	.	.	.	.	.	.	.	.
!	!	!	!	!	!	!	!LO:TX:a:t=|:problem	!	!	!	!	!	!	!	!	!	!	!	!	!	!	!	!	!	!	!	!	!
.	.	.	.	.	16a-\	.	8ff\L	.	8ff\L	.	.	.	.	.	.	.	.	.	.	.	.	.	.	.	.	.	.	.
.	.	.	.	.	16b-\JJ)	.	.	.	.	.	.	.	.	.	.	.	.	.	.	.	.	.	.	.	.	.	.	.
!	!	!	!	!	!	!	!LO:TX:a:t=|:problem	!	!	!	!	!	!	!	!	!	!	!	!	!	!	!	!	!	!	!	!	!
4BB-X/	.	.	4f\	.	4B-/	.	8ddn\	.	8dd\	.	4BB-X/	.	.	.	.	.	.	.	.	.	.	.	.	.	.	.	.	.
!	!	!	!	!	!	!	!LO:TX:a:t=|:problem	!	!	!	!	!	!	!	!	!	!	!	!	!	!	!	!	!	!	!	!	!
.	.	.	.	.	.	.	8cc\	.	8cc\	.	.	.	.	.	.	.	8cc\	.	.	.	.	.	.	.	.	.	.	.
!	!	!	!	!	!	!	!LO:TX:a:t=|:problem	!	!	!	!	!	!	!	!	!	!	!	!	!	!	!	!	!	!	!	!	!
4D/	6 5	.	4B-X/	.	8r	.	8b-\	.	8b-\	.	4D/	-se-	4B-\	-se-	4f\	-se-	8b-\L	-se-	.	.	.	.	.	.	.	.	.	.
!	!	!	!	!	!	!	!LO:TX:a:t=|:problem	!	!	!	!	!	!	!	!	!	!	!	!	!	!	!	!	!	!	!	!	!
.	.	.	.	.	8f/	.	8a-X\J	.	8a-X\J	.	.	.	.	.	.	.	8a-\J	.	.	.	.	.	.	.	.	.	.	.
!	!	!	!	!	!	!	!	!	!	!	!LO:TX:rj:b:t=V&colon;S&colon;	!	!	!	!	!	!	!	!	!	!	!	!	!	!	!	!	!
!	!	!	!	!	!	!	!	!	!	!	!LO:PB:g=original	!	!	!	!LO:LB:g=original	!	!	!	!	!	!	!	!	!	!	!	!	!
=11	=11	=11	=11	=11	=11	=11	=11	=11	=11	=11	=11	=11	=11	=11	=11	=11	=11	=11	=11	=11	=11	=11	=11	=11	=11	=11	=11	=11
!	!	!	!	!	!LO:TX:b:t=|:problem	!	!LO:TX:b:t=|:problem	!	!LO:TX:b:t=|:problem	!	!	!	!	!	!	!	!	!	!	!	!	!	!	!	!	!	!	!
4E-X\	.	.	2.B-/	.	16g/LL	.	16g/LL	.	16g/LL	.	4E-\	-re-	2B-\	-re-	4B-/	-re-	4g/	-re-	2.r	.	.	.	.	.	2.ryy	2.ryy	2.ryy	2.ryy
.	.	.	.	.	(16e-/	.	(16e-X/	.	(16e-/	.	.	.	.	.	.	.	.	.	.	.	.	.	.	.	.	.	.	.
.	.	.	.	.	16d/	.	16d/	.	16d/	.	.	.	.	.	.	.	.	.	.	.	.	.	.	.	.	.	.	.
.	.	.	.	.	16e-/JJ)	.	16e-/JJ)	.	16e-/JJ)	.	.	.	.	.	.	.	.	.	.	.	.	.	.	.	.	.	.	.
!	!	!	!	!	!LO:TX:b:t=|:problem	!	!LO:TX:b:t=|:problem	!	!LO:TX:b:t=|:problem	!	!	!	!	!	!	!	!	!	!	!	!	!	!	!	!	!	!	!
4G\	6	.	.	.	16B-/LL	.	16B-/LL	.	16B-/LL	.	4G\	.	.	.	4B-/	-re	4e-/	-re	.	.	.	.	.	.	.	.	.	.
.	.	.	.	.	(16e-/	.	(16e-/	.	(16e-/	.	.	.	.	.	.	.	.	.	.	.	.	.	.	.	.	.	.	.
.	.	.	.	.	16d/	.	16d/	.	16d/	.	.	.	.	.	.	.	.	.	.	.	.	.	.	.	.	.	.	.
.	.	.	.	.	16e-/JJ)	.	16e-/JJ)	.	16e-/JJ)	.	.	.	.	.	.	.	.	.	.	.	.	.	.	.	.	.	.	.
!	!	!	!	!	!LO:TX:b:t=|:problem	!	!LO:TX:b:t=|:problem	!	!LO:TX:b:t=|:problem	!	!	!	!	!	!	!	!	!	!	!	!	!	!	!	!	!	!	!
4E-\	.	.	.	.	16G/LL	.	16G/LL	.	16G/LL	.	4E-\	-re	4B-\	-re	4r	.	4r	.	.	.	.	.	.	.	.	.	.	.
.	.	.	.	.	(16e-/	.	(16e-/	.	(16e-/	.	.	.	.	.	.	.	.	.	.	.	.	.	.	.	.	.	.	.
.	.	.	.	.	16d/	.	16d/	.	16d/	.	.	.	.	.	.	.	.	.	.	.	.	.	.	.	.	.	.	.
.	.	.	.	.	16e-/JJ)	.	16e-/JJ)	.	16e-/JJ)	.	.	.	.	.	.	.	.	.	.	.	.	.	.	.	.	.	.	.
!	!	!	!	!	!LO:LB:g=original	!	!	!	!	!	!	!	!	!	!	!	!	!	!	!	!	!	!	!	!	!	!	!
=12	=12	=12	=12	=12	=12	=12	=12	=12	=12	=12	=12	=12	=12	=12	=12	=12	=12	=12	=12	=12	=12	=12	=12	=12	=12	=12	=12	=12
!	!	!	!	!	!	!	!	!	!	!	!	!	!	!	!	!	!	!	!	!	!LO:N:vis=00	!	!LO:N:vis=00	!	!	!	!	!
4r	.	.	4r	.	16e-/LL	.	(8cc\L	<	(8cc\L	<	4r	.	4r	.	4r	.	8cc\	mi-	2.r	.	0.r	.	0.r	.	2.ryy	2.ryy	2.ryy	2.ryy
.	.	.	.	.	16e-/	.	.	.	.	.	.	.	.	.	.	.	.	.	.	.	.	.	.	.	.	.	.	.
.	.	.	.	.	16e-/	.	8dd-X\	.	8dd-X\	.	.	.	.	.	.	.	8dd-X\	-se-	.	.	.	.	.	.	.	.	.	.
.	.	.	.	.	16e-/JJ	.	.	.	.	.	.	.	.	.	.	.	.	.	.	.	.	.	.	.	.	.	.	.
4A-\	.	.	4A-/	.	16e-/LL	.	8ddn\	.	8ddn\	.	4A-\	mi-	4A-X\	mi-	4e-\	mi-	8ddn\L	-re-	.	.	.	.	.	.	.	.	.	.
.	.	.	.	.	16e-/	.	.	.	.	.	.	.	.	.	.	.	.	.	.	.	.	.	.	.	.	.	.	.
.	.	.	.	.	16e-/	.	8ee-\J)	.	8ee-\J)	f	.	.	.	.	.	.	8ee-\J	.	.	.	.	.	.	.	.	.	.	.
.	.	.	.	.	16e-/JJ	.	.	.	.	.	.	.	.	.	.	.	.	.	.	.	.	.	.	.	.	.	.	.
!	!	!	!	!	!	!	!LO:LB:g=original	!	!	!	!	!	!	!	!	!	!	!	!	!	!	!	!	!	!	!	!	!
4G\	6	.	4G/	.	16e-/LL	.	8r	f	8r	.	4G\	-se-	4B-\	-se-	4e-\	-se-	4b-\	-re	.	.	.	.	.	.	.	.	.	.
.	.	.	.	.	16e-/	.	.	.	.	.	.	.	.	.	.	.	.	.	.	.	.	.	.	.	.	.	.	.
.	.	.	.	.	16e-/	.	8b-\	.	8b-\	.	.	.	.	.	.	.	.	.	.	.	.	.	.	.	.	.	.	.
.	.	.	.	.	16e-/JJ	.	.	.	.	.	.	.	.	.	.	.	.	.	.	.	.	.	.	.	.	.	.	.
=13	=13	=13	=13	=13	=13	=13	=13	=13	=13	=13	=13	=13	=13	=13	=13	=13	=13	=13	=13	=13	=13	=13	=13	=13	=13	=13	=13	=13
*	*	*	*	*	*tremolo	*	*	*	*	*	*	*	*	*	*	*	*	*	*	*	*	*	*	*	*	*	*	*
4r	.	.	4r	.	16e-/LL	.	(8cc\L	<	(8cc\L	<	4r	.	4r	.	4r	.	8cc\	mi-	2.r	.	.	.	.	.	2.ryy	2.ryy	2.ryy	2.ryy
.	.	.	.	.	16e-/	.	.	.	.	.	.	.	.	.	.	.	.	.	.	.	.	.	.	.	.	.	.	.
.	.	.	.	.	16e-/	.	8dd-X\	.	8dd-X\	.	.	.	.	.	.	.	8dd-X\	-se-	.	.	.	.	.	.	.	.	.	.
.	.	.	.	.	16e-/	.	.	.	.	.	.	.	.	.	.	.	.	.	.	.	.	.	.	.	.	.	.	.
4A-\	.	.	4A-/	.	16e-/	.	8ddn\	.	8ddn\	.	4A-\	-re-	4A-\	-re-	4e-\	-re-	8ddn\L	-re-	.	.	.	.	.	.	.	.	.	.
.	.	.	.	.	16e-/	.	.	.	.	.	.	.	.	.	.	.	.	.	.	.	.	.	.	.	.	.	.	.
.	.	.	.	.	16e-/	.	8ee-\J)	.	8ee-\J)	f	.	.	.	.	.	.	8ee-\J	.	.	.	.	.	.	.	.	.	.	.
.	.	.	.	.	16e-/	.	.	.	.	.	.	.	.	.	.	.	.	.	.	.	.	.	.	.	.	.	.	.
4G\	6	.	4G/	.	16e-/	.	8r	f	8r	.	4G\	-re	4B-\	-re	4e-\	-re	4b-\	-re	.	.	.	.	.	.	.	.	.	.
.	.	.	.	.	16e-/	.	.	.	.	.	.	.	.	.	.	.	.	.	.	.	.	.	.	.	.	.	.	.
.	.	.	.	.	16e-/	.	8b-\	.	8b-\	.	.	.	.	.	.	.	.	.	.	.	.	.	.	.	.	.	.	.
.	.	.	.	.	16e-/JJ	.	.	.	.	.	.	.	.	.	.	.	.	.	.	.	.	.	.	.	.	.	.	.
*	*	*	*	*	*Xtremolo	*	*	*	*	*	*	*	*	*	*	*	*	*	*	*	*	*	*	*	*	*	*	*
!	!	!	!	!	!	!	!	!	!	!	!	!	!	!	!	!	!LO:LB:g=original	!	!	!	!	!	!	!	!	!	!	!
=14	=14	=14	=14	=14	=14	=14	=14	=14	=14	=14	=14	=14	=14	=14	=14	=14	=14	=14	=14	=14	=14	=14	=14	=14	=14	=14	=14	=14
4A-\	.	.	4A-/	.	16c/LL	.	16cc\LL	.	16cc\LL	.	4.A-\	mi-	4.c\	mi-	4r	.	2cc\	mi-	2.r	.	.	.	.	.	2.ryy	2.ryy	2.ryy	2.ryy
.	.	.	.	.	16en/	.	16een\	.	16een\	.	.	.	.	.	.	.	.	.	.	.	.	.	.	.	.	.	.	.
.	.	.	.	.	16f/	.	16ff\	.	16ff\	.	.	.	.	.	.	.	.	.	.	.	.	.	.	.	.	.	.	.
.	.	.	.	.	16g/JJ	.	16gg\JJ	.	16gg\JJ	.	.	.	.	.	.	.	.	.	.	.	.	.	.	.	.	.	.	.
8r	.	.	8r	.	16a-/LL	.	16aa-\LL	.	16aa-\LL	.	.	.	.	.	4f\	mi-	.	.	.	.	.	.	.	.	.	.	.	.
.	.	.	.	.	16b-/	.	16bb-\	.	16bb-\	.	.	.	.	.	.	.	.	.	.	.	.	.	.	.	.	.	.	.
8A-\L	6	.	8c/L	.	16cc/	.	16ccc\	.	16ccc\	.	8A-\	-se-	8c\	-se-	.	.	.	.	.	.	.	.	.	.	.	.	.	.
.	.	.	.	.	16b-/JJ	.	16bb-\JJ	.	16bb-\JJ	.	.	.	.	.	.	.	.	.	.	.	.	.	.	.	.	.	.	.
!	!	!	!	!	!	!	!	!	!	!	!	!	!LO:LB:g=original	!	!	!	!	!	!	!	!	!	!	!	!	!	!	!
8A-\	_	.	8c/	.	16a-/LL	.	16aa-\LL	.	16aa-\LL	.	8A-\	-re-	8c\	-re-	4f\	-se-	4cc\	-se-	.	.	.	.	.	.	.	.	.	.
.	.	.	.	.	16g/	.	16gg\	.	16gg\	.	.	.	.	.	.	.	.	.	.	.	.	.	.	.	.	.	.	.
8An\J	5	.	8c/J	.	16f/	.	16ff\	.	16ff\	.	8An\	-re	8c\	-re	.	.	.	.	.	.	.	.	.	.	.	.	.	.
.	.	.	.	.	16e-X/JJ	.	16ee-X\JJ	.	16ee-X\JJ	.	.	.	.	.	.	.	.	.	.	.	.	.	.	.	.	.	.	.
!	!	!	!LO:LB:g=original	!	!	!	!	!	!LO:LB:g=original	!	!	!	!	!	!	!	!	!	!	!	!	!	!	!	!	!	!	!
=15	=15	=15	=15	=15	=15	=15	=15	=15	=15	=15	=15	=15	=15	=15	=15	=15	=15	=15	=15	=15	=15	=15	=15	=15	=15	=15	=15	=15
!LO:TX:a:t=P:problem: mixed beam	!	!	!	!	!	!	!	!	!	!	!	!	!	!	!	!	!	!	!	!	!	!	!	!	!	!	!	!
.	.	.	.	.	4qqe-/	.	8qqee-/	.	8qqee-/	.	.	.	.	.	.	.	.	.	.	.	.	.	.	.	.	.	.	.
8B-\L	.	.	4B-/	.	4d/	.	4.dd\	.	4.dd\	.	4.B-\	no-	4.B-\	no-	4.f\	-re-	4.dd\	-re-	2.r	.	.	.	.	.	2.ryy	2.ryy	2.ryy	2.ryy
8BB-/	.	.	.	.	.	.	.	.	.	.	.	.	.	.	.	.	.	.	.	.	.	.	.	.	.	.	.	.
8B-\	.	.	8r	.	8r	.	.	.	.	.	.	.	.	.	.	.	.	.	.	.	.	.	.	.	.	.	.	.
8A-X\	.	.	8a-\L	.	4e-/	.	16ee-\LL	.	16ee-\LL	.	8A-X\L	.	8c\	.	8e-\	-re	16ee-\LL	-re	.	.	.	.	.	.	.	.	.	.
.	.	.	.	.	.	.	16cc\JJ	.	16cc\JJ	.	.	.	.	.	.	.	16cc\JJ	.	.	.	.	.	.	.	.	.	.	.
.	.	.	.	.	.	.	16qqcc/	.	16qqcc/	.	.	.	.	.	.	.	.	.	.	.	.	.	.	.	.	.	.	.
8G\	6	.	8g\	.	.	.	8b-\L	.	8b-\L	.	8G\	.	4B-\	.	8e-\L	no-	8b-\L	no-	.	.	.	.	.	.	.	.	.	.
8F\J	6	.	8f\J	.	8d/	.	16cc\L	.	16cc\L	.	8F\J	.	.	.	8d\J	.	16cc\L	.	.	.	.	.	.	.	.	.	.	.
.	.	.	.	.	.	.	16a-\JJ	.	16a-\JJ	.	.	.	.	.	.	.	16a-\JJ	.	.	.	.	.	.	.	.	.	.	.
!LO:LB:g=original	!	!	!	!	!	!	!LO:LB:g=original	!	!	!	!LO:LB:g=original	!	!	!	!LO:LB:g=original	!	!	!	!	!	!	!	!	!	!	!	!	!
=16	=16	=16	=16	=16	=16	=16	=16	=16	=16	=16	=16	=16	=16	=16	=16	=16	=16	=16	=16	=16	=16	=16	=16	=16	=16	=16	=16	=16
!	!	!	!	!	!	!	!	!	!	!	!	!	!	!	!	!	!	!	!	!	!	!	!LO:N:vis=00	!	!	!	!	!
4E-\	.	.	4e-\	.	4e-/	.	(16g/LL	.	(16g/LL	.	4E-\	-bis	4B-\	-bis	4e-\	-bis	4g\	-bis	2.r	.	0.r	.	0.r	.	2.ryy	2.ryy	2.ryy	2.ryy
.	.	.	.	.	.	.	16a-/	.	16a-/	.	.	.	.	.	.	.	.	.	.	.	.	.	.	.	.	.	.	.
.	.	.	.	.	.	.	16an/	.	16an/	.	.	.	.	.	.	.	.	.	.	.	.	.	.	.	.	.	.	.
.	.	.	.	.	.	.	16b-/JJ)	.	16b-/JJ)	.	.	.	.	.	.	.	.	.	.	.	.	.	.	.	.	.	.	.
8r	.	.	8r	.	8r	.	(16bn\LL	.	(16bn\LL	.	8r	.	8r	.	8r	.	8r	.	.	.	.	.	.	.	.	.	.	.
.	.	.	.	.	.	.	16cc\	.	16cc\	.	.	.	.	.	.	.	.	.	.	.	.	.	.	.	.	.	.	.
8C/L	6 3	.	8c/L	.	8e-/L	.	16dd\	.	16dd\	.	8C/L	mi-	8c\L	mi-	8e-\L	mi-	8g/L	mi-	.	.	.	.	.	.	.	.	.	.
.	.	.	.	.	.	.	16ee-\JJ)	.	16ee-\JJ)	.	.	.	.	.	.	.	.	.	.	.	.	.	.	.	.	.	.	.
8D/	_ 3	.	8B-/	.	8f/	.	8.f/L	.	8.f/L	.	8D/J	.	8B-\J	.	8f\J	.	8f/J	.	.	.	.	.	.	.	.	.	.	.
8BB-/J	_ 3	.	8B-/J	.	8d/J	.	.	.	.	.	8BB-/	-se-	8B-\	-se-	8d\	-se-	8a-X\	-se-	.	.	.	.	.	.	.	.	.	.
.	x	.	.	.	.	.	16a-X/Jk	.	16a-X/Jk	.	.	.	.	.	.	.	.	.	.	.	.	.	.	.	.	.	.	.
=17	=17	=17	=17	=17	=17	=17	=17	=17	=17	=17	=17	=17	=17	=17	=17	=17	=17	=17	=17	=17	=17	=17	=17	=17	=17	=17	=17	=17
4E-\	.	.	4B-/	.	4e-/	.	(16g/LL	.	(16g/LL	.	4E-\	-re-	4B-\	-re-	4e-\	-re-	4g/	-re-	2.r	.	.	.	.	.	2.ryy	2.ryy	2.ryy	2.ryy
.	.	.	.	.	.	.	16a-/	.	16a-/	.	.	.	.	.	.	.	.	.	.	.	.	.	.	.	.	.	.	.
.	.	.	.	.	.	.	16an/	.	16an/	.	.	.	.	.	.	.	.	.	.	.	.	.	.	.	.	.	.	.
.	.	.	.	.	.	.	16b-/JJ)	.	16b-/JJ)	.	.	.	.	.	.	.	.	.	.	.	.	.	.	.	.	.	.	.
8r	.	.	8r	.	8r	.	(16bn\LL	.	(16bn\LL	.	8r	.	8r	.	8r	.	8r	.	.	.	.	.	.	.	.	.	.	.
.	.	.	.	.	.	.	16cc\	.	16cc\	.	.	.	.	.	.	.	.	.	.	.	.	.	.	.	.	.	.	.
8C/L	6 3	.	8c/L	.	8e-/L	.	16dd\	.	16dd\	.	8C/L	.	8c\	.	8e-\L	.	8g/L	.	.	.	.	.	.	.	.	.	.	.
.	.	.	.	.	.	.	16ee-\JJ)	.	16ee-\JJ)	.	.	.	.	.	.	.	.	.	.	.	.	.	.	.	.	.	.	.
8D/	_ 3	.	8B-/	.	8f/	.	8.f/L	.	8.f/L	.	8D/	.	4B-\	.	8f\	.	8f/	.	.	.	.	.	.	.	.	.	.	.
8BB-/J	_ 3	.	8B-/J	.	8d/J	.	.	.	.	.	8BB-/J	.	.	.	8d\J	.	8a-/J	.	.	.	.	.	.	.	.	.	.	.
.	x	.	.	.	.	.	16a-X/Jk	.	16a-X/Jk	.	.	.	.	.	.	.	.	.	.	.	.	.	.	.	.	.	.	.
!	!	!	!	!	!LO:LB:g=original	!	!LO:LB:g=original	!	!	!	!	!	!LO:LB:g=original	!	!	!	!	!	!	!	!	!	!	!	!	!	!	!
=18	=18	=18	=18	=18	=18	=18	=18	=18	=18	=18	=18	=18	=18	=18	=18	=18	=18	=18	=18	=18	=18	=18	=18	=18	=18	=18	=18	=18
*	*	*	*	*	*	*	*Xtuplet	*	*Xtuplet	*	*	*	*	*	*	*	*	*	*	*	*	*	*	*	*	*	*	*
!LO:TX:a:t=P:problem: mixed beam	!	!	!	!	!	!	!LO:TUP:a:problem:klamra łukowa z kropką zamiast numeru	!	!LO:TUP:a:problem:klamra łukowa z kropką zamiast numeru	!	!	!	!	!	!	!	!	!	!	!	!	!	!	!	!	!	!	!
8E-\L	.	.	8B-/L	.	8e-/L	.	24g/LL	.	24g/LL	.	8E-\	.	4B-\	-re	4e-\	-re	4g/	-re	2.r	.	.	.	.	.	2.ryy	2.ryy	2.ryy	2.ryy
.	.	.	.	.	.	.	24a-/	.	24a-/	.	.	.	.	.	.	.	.	.	.	.	.	.	.	.	.	.	.	.
.	.	.	.	.	.	.	24b-/JJ	.	24b-/JJ	.	.	.	.	.	.	.	.	.	.	.	.	.	.	.	.	.	.	.
!	!	!	!	!	!	!	!LO:TUP:a:problem:klamra łukowa z kropką zamiast numeru	!	!LO:TUP:a:problem:klamra łukowa z kropką zamiast numeru	!	!	!	!	!	!	!	!	!	!	!	!	!	!	!	!	!	!	!
8A-\	6	.	8c/J	.	8e-/J	.	24a-/LL	.	24a-/LL	.	8A-\	-re	.	.	.	.	.	.	.	.	.	.	.	.	.	.	.	.
.	.	.	.	.	.	.	24g/	.	24g/	.	.	.	.	.	.	.	.	.	.	.	.	.	.	.	.	.	.	.
.	.	.	.	.	.	.	24f/JJ	.	24f/JJ	.	.	.	.	.	.	.	.	.	.	.	.	.	.	.	.	.	.	.
8B-\	6 4	.	8B-/L	.	8e-/L	.	8.e-/L	.	8.e-/L	.	4B-\	no-	2B-\	no-	4g\	no-	4ee-\	no-	.	.	.	.	.	.	.	.	.	.
8B-\	.	.	8B-/J	.	8e-/	.	.	.	.	.	.	.	.	.	.	.	.	.	.	.	.	.	.	.	.	.	.	.
.	.	.	.	.	.	.	16f/Jk	.	16f/Jk	.	.	.	.	.	.	.	.	.	.	.	.	.	.	.	.	.	.	.
8BB-/	5 3	.	8A-/L	.	8d/	.	4fT/	.	4fT/	.	4BB-/	.	.	.	4f\	.	4dd\	.	.	.	.	.	.	.	.	.	.	.
8BB-/J	.	.	8A-/J	.	8d/J	.	.	.	.	.	.	.	.	.	.	.	.	.	.	.	.	.	.	.	.	.	.	.
!	!	!	!LO:LB:g=original	!	!	!	!	!	!	!	!	!	!	!	!	!	!	!	!	!	!	!	!	!	!	!	!	!
=19	=19	=19	=19	=19	=19	=19	=19	=19	=19	=19	=19	=19	=19	=19	=19	=19	=19	=19	=19	=19	=19	=19	=19	=19	=19	=19	=19	=19
4E-\	.	.	4G/	.	4e-/	.	(16g/LL	.	(16g/LL	.	4E-\	-bis	4B-\	-bis	4g\	-bis	4ee-\	-bis	2.r	.	.	.	.	.	2.ryy	2.ryy	2.ryy	2.ryy
.	.	.	.	.	.	.	16a-/	.	16a-/	.	.	.	.	.	.	.	.	.	.	.	.	.	.	.	.	.	.	.
.	.	.	.	.	.	.	16an/	.	16an/	.	.	.	.	.	.	.	.	.	.	.	.	.	.	.	.	.	.	.
.	.	.	.	.	.	.	16b-/JJ)	.	16b-/JJ)	.	.	.	.	.	.	.	.	.	.	.	.	.	.	.	.	.	.	.
8r	.	.	8r	.	8r	.	(16bn\LL	.	(16bn\LL	.	4r	.	4r	.	4r	.	4r	.	.	.	.	.	.	.	.	.	.	.
.	.	.	.	.	.	.	16cc\	.	16cc\	.	.	.	.	.	.	.	.	.	.	.	.	.	.	.	.	.	.	.
8C/L	6 3	.	8c/L	.	8e-/L	.	16dd\)	.	16dd\)	.	.	.	.	.	.	.	.	.	.	.	.	.	.	.	.	.	.	.
.	.	.	.	.	.	.	16ee-\JJ	.	16ee-\JJ	.	.	.	.	.	.	.	.	.	.	.	.	.	.	.	.	.	.	.
8D/	_ 3	.	8B-/	.	8f/	.	8.f/L	.	8.f/L	.	4r	.	4r	.	4r	.	4r	.	.	.	.	.	.	.	.	.	.	.
8BB-/J	_ 3	.	8B-/J	.	8d/J	.	.	.	.	.	.	.	.	.	.	.	.	.	.	.	.	.	.	.	.	.	.	.
.	x	.	.	.	.	.	16a-X/Jk	.	16a-X/Jk	.	.	.	.	.	.	.	.	.	.	.	.	.	.	.	.	.	.	.
!	!	!	!	!	!	!	!	!	!	!	!	!	!	!	!LO:LB:g=original	!	!	!	!	!	!	!	!	!	!	!	!	!
=20	=20	=20	=20	=20	=20	=20	=20	=20	=20	=20	=20	=20	=20	=20	=20	=20	=20	=20	=20	=20	=20	=20	=20	=20	=20	=20	=20	=20
!LO:TX:a:t=P:problem: mixed beam	!	!	!	!	!	!	!LO:TUP:a:problem:klamra łukowa z kropką zamiast numeru	!	!LO:TUP:a:problem:klamra łukowa z kropką zamiast numeru	!	!	!	!	!	!	!	!	!	!	!	!	!	!	!	!	!	!	!
!	!	!	!	!	!	!	!	!	!	!	!	!	!	!	!	!	!	!	!	!	!LO:N:vis=00	!	!LO:N:vis=00	!	!	!	!	!
8E-\L	.	.	8B-/L	.	8e-/L	.	24g/LL	.	24g/LL	.	4r	.	4r	.	4r	.	4r	.	2.r	.	0.r	.	0.r	.	2.ryy	2.ryy	2.ryy	2.ryy
.	.	.	.	.	.	.	24a-/	.	24a-/	.	.	.	.	.	.	.	.	.	.	.	.	.	.	.	.	.	.	.
.	.	.	.	.	.	.	24b-/JJ	.	24b-/JJ	.	.	.	.	.	.	.	.	.	.	.	.	.	.	.	.	.	.	.
!	!	!	!	!	!	!	!LO:TUP:a:problem:klamra łukowa z kropką zamiast numeru	!	!LO:TUP:a:problem:klamra łukowa z kropką zamiast numeru	!	!	!	!	!	!	!	!	!	!	!	!	!	!	!	!	!	!	!
8A-\	6	.	16A-/L	.	8e-/J	.	24cc/LL	.	24cc/LL	.	.	.	.	.	.	.	.	.	.	.	.	.	.	.	.	.	.	.
.	.	.	.	.	.	.	24a-/	.	24a-/	.	.	.	.	.	.	.	.	.	.	.	.	.	.	.	.	.	.	.
.	.	.	16c/JJ	.	.	.	.	.	.	.	.	.	.	.	.	.	.	.	.	.	.	.	.	.	.	.	.	.
.	.	.	.	.	.	.	24f/JJ	.	24f/JJ	.	.	.	.	.	.	.	.	.	.	.	.	.	.	.	.	.	.	.
8B-\	4	.	8B-/L	.	8e-/L	.	8.e-/L	.	8.e-/L	.	4B-\	no-	2B-\	no-	4g\	no-	4ee-\	no-	.	.	.	.	.	.	.	.	.	.
8B-\	.	.	8B-/	.	8e-/	.	.	.	.	.	.	.	.	.	.	.	.	.	.	.	.	.	.	.	.	.	.	.
.	.	.	.	.	.	.	16f/Jk	.	16f/Jk	.	.	.	.	.	.	.	.	.	.	.	.	.	.	.	.	.	.	.
8BB-/	3	.	8A-/	.	8d/	.	4fT/	.	4fT/	.	4BB-/	.	.	.	4f\	.	4dd\	.	.	.	.	.	.	.	.	.	.	.
8BB-/J	.	.	8A-/J	.	8d/J	.	.	.	.	.	.	.	.	.	.	.	.	.	.	.	.	.	.	.	.	.	.	.
!	!	!	!	!	!	!	!	!	!LO:PB:g=original	!	!	!	!	!	!	!	!	!	!	!	!	!	!	!	!	!	!	!
=21	=21	=21	=21	=21	=21	=21	=21	=21	=21	=21	=21	=21	=21	=21	=21	=21	=21	=21	=21	=21	=21	=21	=21	=21	=21	=21	=21	=21
!	!	!	!	!	!	!	!	!LO:DY:	!	!	!	!	!	!	!	!	!	!	!	!	!	!	!	!	!	!	!	!
4E-\	.	.	4G/	.	8e-/L	p	8e-/L	p	8e-/L	p	4E-\	-bis	4B-\	-bis	4g\	-bis	4ee-\	-bis	2.r	.	.	.	.	.	2.ryy	2.ryy	2.ryy	2.ryy
!	!	!	!	!	!	!	!	!	!LO:TX:b:t=|:problem	!	!	!	!	!	!	!	!	!	!	!	!	!	!	!	!	!	!	!
.	.	.	.	.	8G/	.	8B-'/	.	8B-/	.	.	.	.	.	.	.	.	.	.	.	.	.	.	.	.	.	.	.
!	!	!	!	!	!	!	!	!	!LO:TX:b:t=|:problem	!	!	!	!	!	!	!	!	!	!	!	!	!	!	!	!	!	!	!
4r	.	.	4r	.	8G/	.	8B-'/	.	8B-/	.	4r	.	4r	.	4r	.	4r	.	.	.	.	.	.	.	.	.	.	.
!	!	!	!	!	!	!	!	!	!LO:TX:b:t=|:problem	!	!	!	!	!	!	!	!	!	!	!	!	!	!	!	!	!	!	!
.	.	.	.	.	8G/J	.	8B-'/J	.	8B-/J	.	.	.	.	.	.	.	.	.	.	.	.	.	.	.	.	.	.	.
8r	.	.	8r	.	4A-/	.	(16c/LL	.	(16c/LL	.	4r	.	4r	.	4r	.	4r	.	.	.	.	.	.	.	.	.	.	.
.	.	.	.	.	.	.	16a-/	.	16a-/	.	.	.	.	.	.	.	.	.	.	.	.	.	.	.	.	.	.	.
!LO:TX:a:t=Solo.	!	!	!	!	!	!	!	!	!	!	!	!	!	!	!	!	!	!	!	!	!	!	!	!	!	!	!	!
8BB-/	7	p	8B-/	p	.	.	16f/	.	16f/	.	.	.	.	.	.	.	.	.	.	.	.	.	.	.	.	.	.	.
.	.	.	.	.	.	.	16d/JJ)	.	16d/JJ)	.	.	.	.	.	.	.	.	.	.	.	.	.	.	.	.	.	.	.
!	!	!	!	!	!	!	!	!	!	!	!LO:LB:g=original	!	!	!	!	!	!	!	!	!	!	!	!	!	!	!	!	!
=22	=22	=22	=22	=22	=22	=22	=22	=22	=22	=22	=22	=22	=22	=22	=22	=22	=22	=22	=22	=22	=22	=22	=22	=22	=22	=22	=22	=22
!	!	!	!	!	!	!	!	!LO:DY:rj	!	!LO:DY:a	!	!	!	!	!	!	!	!	!	!	!	!	!	!	!	!	!	!
!	!	!	!	!	!	!	!	!	!	!	!LO:N:vis=0	!	!	!	!LO:N:vis=0	!	!LO:N:vis=0	!	!	!	!	!	!	!	!	!	!	!
4E-\	.	.	4B-/	.	8r	.	8e-/L	p	8e-/L	p	1.r	.	1.r	.	1.r	.	1.r	.	2.r	.	.	.	.	.	2.ryy	2.ryy	2.ryy	2.ryy
!	!	!	!	!	!	!	!	!	!LO:TX:b:t=|:problem	!	!	!	!	!	!	!	!	!	!	!	!	!	!	!	!	!	!	!
.	.	.	.	.	8G/L	.	8B-'/	.	8B-/	.	.	.	.	.	.	.	.	.	.	.	.	.	.	.	.	.	.	.
!	!	!	!	!	!	!	!	!	!LO:TX:b:t=|:problem	!	!	!	!	!	!	!	!	!	!	!	!	!	!	!	!	!	!	!
4r	.	.	4r	.	8G/	.	8B-'/	.	8B-/	.	.	.	.	.	.	.	.	.	.	.	.	.	.	.	.	.	.	.
!	!	!	!	!	!	!	!	!	!LO:TX:b:t=|:problem	!	!	!	!	!	!	!	!	!	!	!	!	!	!	!	!	!	!	!
.	.	.	.	.	8G/J	.	8B-'/J	.	8B-/J	.	.	.	.	.	.	.	.	.	.	.	.	.	.	.	.	.	.	.
8r	.	.	8r	.	4A-/	.	16c/LL	.	16c/LL	.	.	.	.	.	.	.	.	.	.	.	.	.	.	.	.	.	.	.
.	.	.	.	.	.	.	(16a-/	.	(16a-/	.	.	.	.	.	.	.	.	.	.	.	.	.	.	.	.	.	.	.
8BB-/	7	.	8B-/	.	.	.	16f/	.	16f/	.	.	.	.	.	.	.	.	.	.	.	.	.	.	.	.	.	.	.
.	.	.	.	.	.	.	16d/JJ)	.	16d/JJ)	.	.	.	.	.	.	.	.	.	.	.	.	.	.	.	.	.	.	.
!	!	!	!LO:LB:g=original	!	!	!	!	!	!	!	!	!	!	!	!	!	!	!	!	!	!	!	!	!	!	!	!	!
=23	=23	=23	=23	=23	=23	=23	=23	=23	=23	=23	=23	=23	=23	=23	=23	=23	=23	=23	=23	=23	=23	=23	=23	=23	=23	=23	=23	=23
4.E-\	7 4	.	2.B-/	.	(4A-/	.	(4d/	.	(4d/	.	.	.	.	.	.	.	.	.	2.r	.	.	.	.	.	2.ryy	2.ryy	2.ryy	2.ryy
.	8 3	.	.	.	4G/)	.	4e-/)	.	4e-/)	.	.	.	.	.	.	.	.	.	.	.	.	.	.	.	.	.	.	.
!LO:TX:a:t=|:problem	!	!	!	!	!	!	!	!	!	!	!	!	!	!	!	!	!	!	!	!	!	!	!	!	!	!	!	!
16G\LL	.	.	.	.	.	.	.	.	.	.	.	.	.	.	.	.	.	.	.	.	.	.	.	.	.	.	.	.
!LO:TX:a:t=|:problem	!	!	!	!	!	!	!	!	!	!	!	!	!	!	!	!	!	!	!	!	!	!	!	!	!	!	!	!
16F\JJ	.	.	.	.	.	.	.	.	.	.	.	.	.	.	.	.	.	.	.	.	.	.	.	.	.	.	.	.
!LO:TX:a:t=|:problem	!	!	!	!	!	!	!	!	!	!	!	!	!	!	!	!	!	!	!	!	!	!	!	!	!	!	!	!
8E-\L	.	.	.	.	4r	.	4r	.	4r	.	.	.	.	.	.	.	.	.	.	.	.	.	.	.	.	.	.	.
!LO:TX:a:t=|:problem	!	!	!	!	!	!	!	!	!	!	!	!	!	!	!	!	!	!	!	!	!	!	!	!	!	!	!	!
8D\J	.	.	.	.	.	.	.	.	.	.	.	.	.	.	.	.	.	.	.	.	.	.	.	.	.	.	.	.
!	!	!	!	!	!	!	!	!	!	!	!	!	!LO:TX:rj:b:t=V&colon;S&colon;	!	!LO:TX:rj:b:t=V&colon;S&colon;	!	!	!	!	!	!	!	!	!	!	!	!	!
!LO:LB:g=original	!	!	!	!	!	!	!LO:LB:g=original	!	!	!	!	!	!LO:PB:g=original	!	!LO:PB:g=original	!	!LO:LB:g=original	!	!	!	!	!	!	!	!	!	!	!
=24	=24	=24	=24	=24	=24	=24	=24	=24	=24	=24	=24	=24	=24	=24	=24	=24	=24	=24	=24	=24	=24	=24	=24	=24	=24	=24	=24	=24
!LO:TX:a:t=Solo.	!	!	!	!	!	!LO:DY:a	!	!LO:DY:a	!	!LO:DY:a	!	!	!	!	!	!	!	!	!	!	!	!	!	!	!	!	!	!
2C/	.	.	2G/	mf	2c/	mf	2e-/	mf	2e-/	mf	2c\	A-	2c\	A-	2g\	A-	2ee-\	A-	2.r	.	4r	.	4r	.	2.ryy	2.ryy	2.ryy	2.ryy
!	!	!	!	!	!	!	!	!	!	!	!	!	!	!	!	!	!	!	!	!	!	!LO:DY:a	!	!	!	!	!	!
.	.	.	.	.	.	.	.	.	.	.	.	.	.	.	.	.	.	.	.	.	4G/	p	4g/	p	.	.	.	.
4c\	.	mf	4G/	.	4c/	.	4e-/	.	4e-/	.	4c\	-gnus	4c\	-gnus	4g\	-gnus	4ee-\	-gnus	.	.	4G/	.	4g/	.	.	.	.	.
=25	=25	=25	=25	=25	=25	=25	=25	=25	=25	=25	=25	=25	=25	=25	=25	=25	=25	=25	=25	=25	=25	=25	=25	=25	=25	=25	=25	=25
4Bn\	6 5	.	4G/	.	4d/	.	4f/	.	4f/	.	4BnX\	De-	4d\	De-	4g\	De-	4ff\	De-	2.r	.	4G/	.	4g/	.	2.ryy	2.ryy	2.ryy	2.ryy
!	!	!	!	!	!	!	!LO:TX:a:t=P:problem: mixed beam	!	!LO:TX:a:t=P:problem: mixed beam	!	!	!	!	!	!	!	!	!	!	!	!	!	!	!	!	!	!	!
4c\	.	.	4G/	.	8c/L	.	8e-/L	.	8e-/L	.	4c\	-i	4c\	-i	4g\	-i	4ee-\	-i	.	.	4G/	.	4g/	.	.	.	.	.
!	!	!	!	!	!LO:TX:b:t=|:problem	!	!LO:TX:a:t=|:problem	!	!LO:TX:a:t=|:problem	!	!	!	!	!	!	!	!	!	!	!	!	!	!	!	!	!	!	!
.	.	.	.	.	8g/	p	8gg\	.	8gg\	p	.	.	.	.	.	.	.	.	.	.	.	.	.	.	.	.	.	.
!	!	!	!	!LO:DY:rj	!LO:TX:b:t=|:problem	!	!LO:TX:a:t=|:problem	!	!LO:TX:a:t=|:problem	!	!	!	!	!	!	!	!	!	!	!	!	!	!	!	!	!	!	!
4r	.	.	4C/	p	8e-/	.	8ee-X\	p	8ee-\	.	4r	.	4r	.	4r	.	4r	.	.	.	4r	.	4r	.	.	.	.	.
!	!	!	!	!	!LO:TX:b:t=|:problem	!	!LO:TX:a:t=|:problem	!	!LO:TX:a:t=|:problem	!	!	!	!	!	!	!	!	!	!	!	!	!	!	!	!	!	!	!
.	.	.	.	.	8c/J	.	8cc\J	.	8cc\J	.	.	.	.	.	.	.	.	.	.	.	.	.	.	.	.	.	.	.
!	!	!	!	!	!LO:LB:g=original	!	!	!	!	!	!	!	!	!	!	!	!	!	!	!	!	!	!	!	!	!	!	!
=26	=26	=26	=26	=26	=26	=26	=26	=26	=26	=26	=26	=26	=26	=26	=26	=26	=26	=26	=26	=26	=26	=26	=26	=26	=26	=26	=26	=26
4r	.	.	4G/	.	(8Bn/L	.	(8bn\L	.	(8bn\L	.	4r	.	4r	.	4r	.	4r	.	2.r	.	4r	.	4r	.	2.ryy	2.ryy	2.ryy	2.ryy
.	.	.	.	.	8d/J)	.	8dd\J)	.	8dd\J)	.	.	.	.	.	.	.	.	.	.	.	.	.	.	.	.	.	.	.
!	!	!	!	!	!	!	!LO:TX:a:t=|:problem	!	!LO:TX:a:t=|:problem	!	!	!	!	!	!	!	!	!	!	!	!	!	!	!	!	!	!	!
4r	.	.	4C/	.	4c/	.	4cc\	.	4cc\	.	4r	.	4r	.	4r	.	4r	.	.	.	4r	.	4r	.	.	.	.	.
!	!	!	!	!	!	!	!	!LO:DY:a	!	!LO:DY:a	!	!	!	!	!	!	!	!	!	!	!	!	!	!	!	!	!	!
4c\	.	.	4G/	mf	4c/	.	4e-/	mf	4e-/	mf	4c\	qui	4c\	qui	4g\	qui	4ee-\	qui	.	.	4G/	.	4g/	.	.	.	.	.
=27	=27	=27	=27	=27	=27	=27	=27	=27	=27	=27	=27	=27	=27	=27	=27	=27	=27	=27	=27	=27	=27	=27	=27	=27	=27	=27	=27	=27
!	!	!	!	!	!	!LO:DY:a	!	!	!	!	!	!	!	!	!	!	!	!	!	!	!	!	!	!	!	!	!	!
4Bn\	6 5	.	4G/	.	4d/	mf	4f/	.	4f/	.	4Bn\	tol-	4d\	tol-	4g\	tol-	4ff\	tol-	2.r	.	4G/	.	4g/	.	2.ryy	2.ryy	2.ryy	2.ryy
!	!	!	!	!	!	!	!LO:TX:a:t=P:problem: mixed beam	!	!LO:TX:a:t=P:problem: mixed beam	!	!	!	!	!	!	!	!	!	!	!	!	!	!	!	!	!	!	!
4c\	.	.	4G/	.	8c/L	.	8e-/L	.	8e-/L	.	4c\	-lis	4c\	-lis	4g\	-lis	4ee-\	-lis	.	.	4G/	.	4g/	.	.	.	.	.
!	!	!	!	!	!LO:TX:b:t=|:problem	!	!LO:TX:a:t=|:problem	!	!LO:TX:a:t=|:problem	!	!	!	!	!	!	!	!	!	!	!	!	!	!	!	!	!	!	!
.	.	.	.	.	8g/	p	8gg\	p	8gg\	p	.	.	.	.	.	.	.	.	.	.	.	.	.	.	.	.	.	.
!	!	!	!	!LO:DY:rj	!LO:TX:b:t=|:problem	!	!LO:TX:a:t=|:problem	!	!LO:TX:a:t=|:problem	!	!	!	!	!	!	!	!	!	!	!	!	!	!	!	!	!	!	!
4r	.	.	4C/	p	8e-/	.	8ee-\	.	8ee-\	.	4r	.	4r	.	4r	.	4r	.	.	.	4r	.	4r	.	.	.	.	.
!	!	!	!	!	!LO:TX:b:t=|:problem	!	!LO:TX:a:t=|:problem	!	!LO:TX:a:t=|:problem	!	!	!	!	!	!	!	!	!	!	!	!	!	!	!	!	!	!	!
.	.	.	.	.	8c/J	.	8cc\J	.	8cc\J	.	.	.	.	.	.	.	.	.	.	.	.	.	.	.	.	.	.	.
=28	=28	=28	=28	=28	=28	=28	=28	=28	=28	=28	=28	=28	=28	=28	=28	=28	=28	=28	=28	=28	=28	=28	=28	=28	=28	=28	=28	=28
!	!	!	!	!	!	!	!	!	!	!	!	!	!	!	!	!	!	!	!	!	!LO:N:vis=0	!	!LO:N:vis=0	!	!	!	!	!
2.r	.	.	4G/	.	(8Bn/L	.	(8bn\L	.	(8bn\L	.	2.r	.	2.r	.	2.r	.	2.r	.	2.r	.	1.r	.	1.r	.	2.ryy	2.ryy	2.ryy	2.ryy
.	.	.	.	.	8d/J)	.	8dd\J)	.	8dd\J)	.	.	.	.	.	.	.	.	.	.	.	.	.	.	.	.	.	.	.
.	.	.	4C/	.	4c/	.	8cc\L	.	8cc\L	.	.	.	.	.	.	.	.	.	.	.	.	.	.	.	.	.	.	.
!	!	!	!	!	!	!	!LO:TX:a:t=|:problem	!	!LO:TX:a:t=|:problem	!	!	!	!	!	!	!	!	!	!	!	!	!	!	!	!	!	!	!
.	.	.	.	.	.	.	8cc\	f	8cc\	f	.	.	.	.	.	.	.	.	.	.	.	.	.	.	.	.	.	.
!	!	!	!	!	!	!	!LO:TX:a:t=|:problem	!	!LO:TX:a:t=|:problem	!	!	!	!	!	!	!	!	!	!	!	!	!	!	!	!	!	!	!
.	.	.	4r	.	4r	.	8een\	.	8een\	.	.	.	.	.	.	.	.	.	.	.	.	.	.	.	.	.	.	.
!	!	!	!	!	!	!	!LO:TX:a:t=|:problem	!	!LO:TX:a:t=|:problem	!	!	!	!	!	!	!	!	!	!	!	!	!	!	!	!	!	!	!
.	.	.	.	.	.	.	8gg\J	.	8gg\J	.	.	.	.	.	.	.	.	.	.	.	.	.	.	.	.	.	.	.
!	!	!	!	!	!	!	!	!	!	!	!	!	!LO:LB:g=original	!	!	!	!	!	!	!	!	!	!	!	!	!	!	!
=29	=29	=29	=29	=29	=29	=29	=29	=29	=29	=29	=29	=29	=29	=29	=29	=29	=29	=29	=29	=29	=29	=29	=29	=29	=29	=29	=29	=29
*tremolo	*	*	*	*	*tremolo	*	*	*	*	*	*	*	*	*	*	*	*	*	*	*	*	*	*	*	*	*	*	*
*	*	*	*	*	*2\right	*	*	*	*	*	*	*	*	*	*	*	*	*	*	*	*	*	*	*	*	*	*	*
!LO:TX:rj:a:t=T&colon;	!	!	!	!	!	!	!	!	!	!	!	!	!	!	!	!	!	!	!	!	!	!	!	!	!	!	!	!
8En\L	-7 3	.	8g\L	f	8dd-X\L	f	(16bb-X\LL	.	(16bb-X\LL	.	4En\	pec-	4B-X\	pec-	4g\	pec-	4dd-X\	pec-	2.r	.	.	.	.	.	2.ryy	2.ryy	2.ryy	2.ryy
.	.	.	.	.	.	.	16gg\	.	16gg\	.	.	.	.	.	.	.	.	.	.	.	.	.	.	.	.	.	.	.
8En\	.	.	8g\	.	8dd-X\	.	16gg\	.	16gg\	.	.	.	.	.	.	.	.	.	.	.	.	.	.	.	.	.	.	.
.	.	.	.	.	.	.	16een\JJ)	.	16een\JJ)	.	.	.	.	.	.	.	.	.	.	.	.	.	.	.	.	.	.	.
8En\	.	.	8g\	.	8dd-X\	.	(16ee\LL	.	(16ee\LL	.	4E\	-ca-	4B-\	-ca-	4g\	-ca-	4dd-\	-ca-	.	.	.	.	.	.	.	.	.	.
.	.	.	.	.	.	.	16dd-X\	.	16dd-X\	.	.	.	.	.	.	.	.	.	.	.	.	.	.	.	.	.	.	.
8En\	.	.	8g\	.	8dd-X\	.	16dd-\	.	16dd-\	.	.	.	.	.	.	.	.	.	.	.	.	.	.	.	.	.	.	.
.	.	.	.	.	.	.	16b-\JJ)	.	16b-\JJ)	.	.	.	.	.	.	.	.	.	.	.	.	.	.	.	.	.	.	.
8En\	.	.	8g\	.	8dd-X\	.	(16b-/LL	.	16b-/LL	.	4E\	-ta	4B-\	-ta	4g\	-ta	4dd-\	-ta	.	.	.	.	.	.	.	.	.	.
.	.	.	.	.	.	.	16g/	.	(16g/	.	.	.	.	.	.	.	.	.	.	.	.	.	.	.	.	.	.	.
8En\J	.	.	8g\J	.	8dd-X\J	.	16g/)	.	16g/	.	.	.	.	.	.	.	.	.	.	.	.	.	.	.	.	.	.	.
.	.	.	.	.	.	.	16en/JJ	.	16en/JJ)	.	.	.	.	.	.	.	.	.	.	.	.	.	.	.	.	.	.	.
*	*	*	*	*	*Xtremolo	*	*	*	*	*	*	*	*	*	*	*	*	*	*	*	*	*	*	*	*	*	*	*
!	!	!	!	!	!	!	!	!	!LO:LB:g=original	!	!	!	!	!	!	!	!	!	!	!	!	!	!	!	!	!	!	!
=30	=30	=30	=30	=30	=30	=30	=30	=30	=30	=30	=30	=30	=30	=30	=30	=30	=30	=30	=30	=30	=30	=30	=30	=30	=30	=30	=30	=30
!	!	!	!	!	!	!	!	!	!	!	!	!	!	!	!	!	!LO:SIC:s=2ddn	!	!	!	!	!	!	!	!	!	!	!
8E-\L	_ _	.	8g\L	.	4.dd\	.	(16en/LL	.	(16e-/LL	.	2.E-\	mun-	2B-\	mun-	2.g\	mun-	2dd\	mun-	2.r	.	2.r	.	2.r	.	2.ryy	2.ryy	2.ryy	2.ryy
.	.	.	.	.	.	.	16d-X/	.	16d-X/	.	.	.	.	.	.	.	.	.	.	.	.	.	.	.	.	.	.	.
8E-\	.	.	8g\	.	.	.	16d-/)	.	16d-/)	.	.	.	.	.	.	.	.	.	.	.	.	.	.	.	.	.	.	.
.	.	.	.	.	.	.	16B-/JJ	.	16B-/JJ	.	.	.	.	.	.	.	.	.	.	.	.	.	.	.	.	.	.	.
8E-\	.	.	8g\	.	.	.	(16B-/LL	.	(16B-/LL	.	.	.	.	.	.	.	.	.	.	.	.	.	.	.	.	.	.	.
.	.	.	.	.	.	.	16G/	.	16G/	.	.	.	.	.	.	.	.	.	.	.	.	.	.	.	.	.	.	.
8E-\J	.	.	8g\J	.	8d-X/	.	16G/	.	16G/	.	.	.	.	.	.	.	.	.	.	.	.	.	.	.	.	.	.	.
.	.	.	.	.	.	.	16d-X/JJ)	.	16d-X/JJ)	.	.	.	.	.	.	.	.	.	.	.	.	.	.	.	.	.	.	.
*Xtremolo	*	*	*	*	*	*	*	*	*	*	*	*	*	*	*	*	*	*	*	*	*	*	*	*	*	*	*	*
8E-\L	6	.	8c\L	.	(16d-/LL	.	(16d-/LL	.	(16d-/LL	.	.	.	4c\	.	.	.	8cc\L	.	.	.	.	.	.	.	.	.	.	.
.	.	.	.	.	16c/	.	16c/	.	16c/	.	.	.	.	.	.	.	.	.	.	.	.	.	.	.	.	.	.	.
8E-\J	5	.	8c\J	.	16c/)	.	16c/	.	16c/	.	.	.	.	.	.	.	8b-X\J	.	.	.	.	.	.	.	.	.	.	.
.	.	.	.	.	16B-X/JJ	.	16B-/JJ)	.	16B-/JJ)	.	.	.	.	.	.	.	.	.	.	.	.	.	.	.	.	.	.	.
!	!	!	!	!	!	!	!LO:TX:a:t=|:proble	!	!	!	!LO:LB:g=original	!	!	!	!	!	!	!	!	!	!	!	!	!	!	!	!	!
=31	=31	=31	=31	=31	=31	=31	=31	=31	=31	=31	=31	=31	=31	=31	=31	=31	=31	=31	=31	=31	=31	=31	=31	=31	=31	=31	=31	=31
4F\	-	.	4c\	.	4A-X/	.	4A-X/	.	4A-/	.	4F\	-di	4c\	-di	4f\	-di	4a-\	-di	2.r	.	4r	.	4r	.	2.ryy	2.ryy	2.ryy	2.ryy
!	!	!	!	!	!	!	!	!	!	!	!	!	!	!	!LO:LB:g=original	!	!	!	!	!	!	!	!	!	!	!	!	!
!LO:TX:a:t=Solo.	!	!	!	!	!	!	!	!	!	!	!	!	!	!	!	!	!	!	!	!	!	!	!	!LO:DY:rj	!	!	!	!
4F\	.	mf	4c\	mf	4f/	.	4a-/	mf	4a-X/	mf	4F\	A-	4c\	A-	4f\	A-	4a-\	A-	.	.	4c/	.	4cc\	p	.	.	.	.
!	!	!	!	!	!	!LO:DY:a	!	!	!	!	!	!	!	!	!	!	!	!	!	!	!	!	!	!	!	!	!	!
4F\	.	.	4c\	.	4f/	mf	4a-/	.	4a-/	.	4F\	-gnus	4c\	-gnus	4f\	-gnus	4a-\	-gnus	.	.	4c/	.	4cc\	.	.	.	.	.
!	!	!	!LO:LB:g=original	!	!	!	!	!	!	!	!	!	!	!	!	!	!	!	!	!	!	!	!LO:LB:g=original	!	!	!	!	!
=32	=32	=32	=32	=32	=32	=32	=32	=32	=32	=32	=32	=32	=32	=32	=32	=32	=32	=32	=32	=32	=32	=32	=32	=32	=32	=32	=32	=32
4En\	6 5	.	4c\	.	4g/	.	4b-/	.	4b-/	.	4En\	De-	4c\	De-	4g\	De-	4b-\	De-	2.r	.	4c/	.	4cc\	.	2.ryy	2.ryy	2.ryy	2.ryy
!	!	!	!	!	!	!	!LO:TX:a:t=P:problem: mixed beam	!	!LO:TX:a:t=P:problem: mixed beam	!	!	!	!	!	!	!	!	!	!	!	!	!	!	!	!	!	!	!
4F\	.	.	4c\	.	8f/L	.	8a-/L	.	8a-/L	.	4F\	-i	4c\	-i	4f\	-i	4a-\	-i	.	.	4c/	.	4cc\	.	.	.	.	.
!	!	!	!	!	!LO:TX:b:t=|:problem	!	!LO:TX:a:t=|:problem	!	!LO:TX:a:t=|:problem	!	!	!	!	!	!	!	!	!	!	!	!	!	!	!	!	!	!	!
.	.	.	.	.	8cc/	p	8ccc\	p	8ccc\	p	.	.	.	.	.	.	.	.	.	.	.	.	.	.	.	.	.	.
!	!	!	!	!LO:DY:rj	!LO:TX:b:t=|:problem	!	!LO:TX:a:t=|:problem	!	!LO:TX:a:t=|:problem	!	!	!	!	!	!	!	!	!	!	!	!	!	!	!	!	!	!	!
4r	.	.	4F/	p	8a-/	.	8aa-\	.	8aa-\	.	4r	.	4r	.	4r	.	4r	.	.	.	4r	.	4r	.	.	.	.	.
!	!	!	!	!	!LO:TX:b:t=|:problem	!	!LO:TX:a:t=|:problem	!	!LO:TX:a:t=|:problem	!	!	!	!	!	!	!	!	!	!	!	!	!	!	!	!	!	!	!
.	.	.	.	.	8f/J	.	8ff\J	.	8ff\J	.	.	.	.	.	.	.	.	.	.	.	.	.	.	.	.	.	.	.
!	!	!	!	!	!	!	!	!	!	!	!	!	!	!	!	!	!LO:LB:g=original	!	!	!	!	!	!	!	!	!	!	!
=33	=33	=33	=33	=33	=33	=33	=33	=33	=33	=33	=33	=33	=33	=33	=33	=33	=33	=33	=33	=33	=33	=33	=33	=33	=33	=33	=33	=33
4r	.	.	4c\	.	(8en/L	.	(8een\L	.	(8een\L	.	4r	.	4r	.	4r	.	4r	.	2.r	.	4r	.	4r	.	2.ryy	2.ryy	2.ryy	2.ryy
.	.	.	.	.	8g/J)	.	8gg\J)	.	8gg\J)	.	.	.	.	.	.	.	.	.	.	.	.	.	.	.	.	.	.	.
4r	.	.	4F/	.	4f/	.	4ff\	.	4ff\	.	4r	.	4r	.	4r	.	4r	.	.	.	4r	.	4r	.	.	.	.	.
!	!	!	!	!	!	!LO:DY:a	!	!LO:DY:a	!	!LO:DY:a	!	!	!	!	!	!	!	!	!	!	!	!	!	!	!	!	!	!
4F\	.	.	4c\	mf	4f/	mf	4a-X/	mf	4a-X/	mf	4F\	qui	4c\	qui	4f\	qui	4a-\	qui	.	.	4c/	.	4cc\	.	.	.	.	.
!	!	!	!	!	!LO:LB:g=original	!	!	!	!	!	!	!	!LO:LB:g=original	!	!	!	!	!	!	!	!	!	!	!	!	!	!	!
=34	=34	=34	=34	=34	=34	=34	=34	=34	=34	=34	=34	=34	=34	=34	=34	=34	=34	=34	=34	=34	=34	=34	=34	=34	=34	=34	=34	=34
4En\	6 5	.	4c\	.	4g/	.	4b-/	.	4b-/	.	4En\	tol-	4c\	tol-	4g\	tol-	4b-\	tol-	2.r	.	4c/	.	4cc\	.	2.ryy	2.ryy	2.ryy	2.ryy
4F\	.	.	4c\	.	4f/	.	4a-/	.	4a-/	.	4F\	-lis	4c\	-lis	4f\	-lis	4a-\	-lis	.	.	4c/	.	4cc\	.	.	.	.	.
4r	.	.	4r	.	4r	.	4r	.	4r	.	4r	.	4r	.	4r	.	4r	.	.	.	4r	.	4r	.	.	.	.	.
!LO:LB:g=original	!	!	!	!	!	!	!	!	!	!	!	!	!	!	!	!	!	!	!	!	!	!	!	!	!	!	!	!
=35	=35	=35	=35	=35	=35	=35	=35	=35	=35	=35	=35	=35	=35	=35	=35	=35	=35	=35	=35	=35	=35	=35	=35	=35	=35	=35	=35	=35
*tremolo	*	*	*	*	*tremolo	*	*	*	*	*	*	*	*	*	*	*	*	*	*	*	*	*	*	*	*	*	*	*
!LO:TX:a:t=T&colon;	!	!	!	!	!	!	!	!	!	!LO:DY:a	!	!	!	!	!	!	!	!	!	!	!LO:TX:a:t=2.	!	!	!	!	!	!	!
!	!	!	!	!	!	!	!	!	!	!	!	!	!	!	!	!	!	!	!	!	!LO:N:vis=0	!	!LO:N:vis=0	!	!	!	!	!
8F#X\L	.	f	8an\L	f	8ee-X\L	f	(16ccc\LL	f	(16ccc\LL	f	4F#X\	pec-	4c\	pec-	4an\	pec-	4ee-\	pec-	2.r	.	1.r	.	1.r	.	2.ryy	2.ryy	2.ryy	2.ryy
.	.	.	.	.	.	.	16aan\	.	16aan\	.	.	.	.	.	.	.	.	.	.	.	.	.	.	.	.	.	.	.
8F#X\	.	.	8a\	.	8ee-X\	.	16aa\)	.	16aa\	.	.	.	.	.	.	.	.	.	.	.	.	.	.	.	.	.	.	.
.	.	.	.	.	.	.	16ff#X\JJ	.	16ff#X\JJ)	.	.	.	.	.	.	.	.	.	.	.	.	.	.	.	.	.	.	.
8F#X\	.	.	8a\	.	8ee-X\	.	(16ff#\LL	.	(16ff#\LL	.	4F#\	-ca-	4c\	-ca-	4a\	-ca-	4ee-\	-ca-	.	.	.	.	.	.	.	.	.	.
.	.	.	.	.	.	.	16ee-X\	.	16ee-X\	.	.	.	.	.	.	.	.	.	.	.	.	.	.	.	.	.	.	.
8F#X\	.	.	8a\	.	8ee-X\	.	16ee-\	.	16ee-\	.	.	.	.	.	.	.	.	.	.	.	.	.	.	.	.	.	.	.
.	.	.	.	.	.	.	16cc\JJ)	.	16cc\JJ)	.	.	.	.	.	.	.	.	.	.	.	.	.	.	.	.	.	.	.
8F#X\	.	.	8a\	.	8ee-X\	.	(16cc/LL	.	(16cc/LL	.	4F#\	-ta	4c\	-ta	4a\	-ta	4ee-\	-ta	.	.	.	.	.	.	.	.	.	.
.	.	.	.	.	.	.	16a-/	.	16a-/	.	.	.	.	.	.	.	.	.	.	.	.	.	.	.	.	.	.	.
8F#X\J	.	.	8a\J	.	8ee-X\J	.	16a-/)	.	16a-/)	.	.	.	.	.	.	.	.	.	.	.	.	.	.	.	.	.	.	.
.	.	.	.	.	.	.	16f#X/JJ	.	16f#X/JJ	.	.	.	.	.	.	.	.	.	.	.	.	.	.	.	.	.	.	.
*Xtremolo	*	*	*	*	*	*	*	*	*	*	*	*	*	*	*	*	*	*	*	*	*	*	*	*	*	*	*	*
*	*	*	*	*	*Xtremolo	*	*	*	*	*	*	*	*	*	*	*	*	*	*	*	*	*	*	*	*	*	*	*
=36	=36	=36	=36	=36	=36	=36	=36	=36	=36	=36	=36	=36	=36	=36	=36	=36	=36	=36	=36	=36	=36	=36	=36	=36	=36	=36	=36	=36
8F\L	.	.	8an\L	.	4.ee-\	.	(16f/LL	.	(16f/LL	.	2.F\	mun-	2c\	mun-	2.a-\	mun-	2ee-\	mun-	2.r	.	.	.	.	.	2.ryy	2.ryy	2.ryy	2.ryy
.	.	.	.	.	.	.	16e-X/	.	16e-X/	.	.	.	.	.	.	.	.	.	.	.	.	.	.	.	.	.	.	.
8F\	.	.	8a\J	.	.	.	16e-/	.	16e-/)	.	.	.	.	.	.	.	.	.	.	.	.	.	.	.	.	.	.	.
.	.	.	.	.	.	.	16c/JJ)	.	16c/JJ	.	.	.	.	.	.	.	.	.	.	.	.	.	.	.	.	.	.	.
8F\	.	.	8a\L	.	.	.	(16c/LL	.	16c/LL	.	.	.	.	.	.	.	.	.	.	.	.	.	.	.	.	.	.	.
.	.	.	.	.	.	.	16An/	.	(16An/	.	.	.	.	.	.	.	.	.	.	.	.	.	.	.	.	.	.	.
8F\J	.	.	8a\J	.	8e-/	.	16A/)	.	16A/	.	.	.	.	.	.	.	.	.	.	.	.	.	.	.	.	.	.	.
.	.	.	.	.	.	.	16e-/JJ	.	16e-/JJ)	.	.	.	.	.	.	.	.	.	.	.	.	.	.	.	.	.	.	.
*Xtremolo	*	*	*	*	*	*	*	*	*	*	*	*	*	*	*	*	*	*	*	*	*	*	*	*	*	*	*	*
8F\L	6	.	8d\L	.	(16e-/LL	.	(16e-/LL	.	(16e-/LL	.	.	.	4d\	.	.	.	8dd\L	.	.	.	.	.	.	.	.	.	.	.
.	.	.	.	.	16d/	.	16d/	.	16d/	.	.	.	.	.	.	.	.	.	.	.	.	.	.	.	.	.	.	.
8F\J	5	.	8d\J	.	16d/)	.	16d/	.	16d/)	.	.	.	.	.	.	.	8cc\J	.	.	.	.	.	.	.	.	.	.	.
.	.	.	.	.	16c/JJ	.	16c/JJ)	.	16c/JJ	.	.	.	.	.	.	.	.	.	.	.	.	.	.	.	.	.	.	.
!	!	!	!LO:LB:g=original	!	!	!	!	!	!	!	!	!	!	!	!	!	!	!	!	!	!LO:LB:g=original	!	!	!	!	!	!	!
=37	=37	=37	=37	=37	=37	=37	=37	=37	=37	=37	=37	=37	=37	=37	=37	=37	=37	=37	=37	=37	=37	=37	=37	=37	=37	=37	=37	=37
4G\	-	.	4d\	.	4B-X/	.	4B-/	.	4B-/	.	4G\	-di	4d\	-di	4g\	-di	4b-\	-di	2.r	.	4r	.	4r	p	2.ryy	2.ryy	2.ryy	2.ryy
!LO:TX:a:t=Solo.	!	!	!	!	!	!	!	!	!	!	!	!	!	!	!	!	!	!	!	!	!	!	!	!	!	!	!	!
4G\	.	mf	4d\	mf	4g/	.	4b-\	.	4b-\	.	4G\	A-	4d\	A-	4g\	A-	4b-\	A-	.	.	4g/	.	4dd\	.	.	.	.	.
!	!	!	!	!	!	!	!	!	!	!	!	!	!	!	!LO:LB:g=original	!	!	!	!	!	!	!	!	!	!	!	!	!
!	!	!	!	!	!	!LO:DY:a	!	!LO:DY:a	!	!LO:DY:a	!	!	!	!	!	!	!	!	!	!	!	!	!	!	!	!	!	!
4G\	.	.	4d\	.	4g/	mf	4b-\	mf	4b-\	mf	4G\	-gnus	4d\	-gnus	4g\	-gnus	4b-\	-gnus	.	.	4g/	.	4dd\	.	.	.	.	.
!	!	!	!	!	!	!	!LO:LB:g=original	!	!LO:LB:g=original	!	!LO:LB:g=original	!	!	!	!	!	!	!	!	!	!	!	!	!	!	!	!	!
=38	=38	=38	=38	=38	=38	=38	=38	=38	=38	=38	=38	=38	=38	=38	=38	=38	=38	=38	=38	=38	=38	=38	=38	=38	=38	=38	=38	=38
4F#X\	6 5	.	4d\	.	4an/	.	4cc\	.	4cc\	.	4F#X\	De-	4d\	De-	4an\	De-	4cc\	De-	2.r	.	4dd\	.	4dd\	.	2.ryy	2.ryy	2.ryy	2.ryy
4G\	.	.	4d\	.	8g\L	p	8b-\L	.	8b-\L	.	4G\	-i	4d\	-i	4g\	-i	4b-\	-i	.	.	4g/	.	4dd\	.	.	.	.	.
!	!	!	!	!	!LO:TX:a:t=|:problem	!	!LO:TX:a:t=|:problem	!	!LO:TX:a:t=|:problem	!	!	!	!	!	!	!	!	!	!	!	!	!	!	!	!	!	!	!
.	.	.	.	.	8dd\	.	8ddd\	.	8ddd\	.	.	.	.	.	.	.	.	.	.	.	.	.	.	.	.	.	.	.
!	!	!	!	!LO:DY:rj	!LO:TX:a:t=|:problem	!	!LO:TX:a:t=|:problem	!	!LO:TX:a:t=|:problem	!	!	!	!	!	!	!	!	!	!	!	!	!	!	!	!	!	!	!
4r	.	.	4G/	p	8b-\	.	8bb-\	p	8bb-\	.	4r	.	4r	.	4r	.	4r	.	.	.	4r	.	4r	.	.	.	.	.
!	!	!	!	!	!LO:TX:a:t=|:problem	!	!LO:TX:a:t=|:problem	!	!LO:TX:a:t=|:problem	!	!	!	!	!	!	!	!	!	!	!	!	!	!	!	!	!	!	!
.	.	.	.	.	8g\J	.	8gg\J	.	8gg\J	.	.	.	.	.	.	.	.	.	.	.	.	.	.	.	.	.	.	.
=39	=39	=39	=39	=39	=39	=39	=39	=39	=39	=39	=39	=39	=39	=39	=39	=39	=39	=39	=39	=39	=39	=39	=39	=39	=39	=39	=39	=39
4r	.	.	4d\	.	(8f#X/L	.	(8.ff#X\L	.	(8.ff#X\L	.	4r	.	4r	.	4r	.	4r	.	2.r	.	4r	.	4r	.	2.ryy	2.ryy	2.ryy	2.ryy
.	.	.	.	.	8an/J)	.	.	.	.	.	.	.	.	.	.	.	.	.	.	.	.	.	.	.	.	.	.	.
.	.	.	.	.	.	.	16aa-\Jk)	.	16aa-\Jk)	.	.	.	.	.	.	.	.	.	.	.	.	.	.	.	.	.	.	.
4r	.	.	4G/	.	4g/	.	4gg\	.	4gg\	.	4r	.	4r	.	4r	.	4r	.	.	.	4r	.	4r	.	.	.	.	.
!	!	!	!	!	!	!LO:DY:a	!	!LO:DY:a	!	!LO:DY:a	!	!	!	!	!	!	!	!	!	!	!	!	!	!	!	!	!	!
4G\	.	.	4d\	mf	4g/	mf	4b-\	mf	4b-\	mf	4G\	qui	4c\	qui	4g\	qui	4b-\	qui	.	.	4g/	.	4dd\	.	.	.	.	.
!	!	!	!	!	!	!	!	!	!	!	!	!	!LO:LB:g=original	!	!	!	!	!	!	!	!	!	!	!	!	!	!	!
=40	=40	=40	=40	=40	=40	=40	=40	=40	=40	=40	=40	=40	=40	=40	=40	=40	=40	=40	=40	=40	=40	=40	=40	=40	=40	=40	=40	=40
4F#X\	6 5	.	4d\	.	4an/	.	4cc\	.	4cc\	.	4F#X\	tol-	4d\	tol-	4an\	tol-	4cc\	tol-	2.r	.	4dd\	.	4dd\	.	2.ryy	2.ryy	2.ryy	2.ryy
4G\	.	.	4d\	.	4g/	.	4b-\	.	4b-\	.	4G\	-lis	4d\	-lis	4g\	-lis	4b-\	-lis	.	.	4g/	.	4dd\	.	.	.	.	.
4r	.	.	4r	.	4r	.	4r	.	4r	.	4r	.	4r	.	4r	.	4r	.	.	.	4r	.	4r	.	.	.	.	.
!	!	!	!	!	!	!	!LO:LB:g=original	!	!	!	!	!	!	!	!	!	!	!	!	!	!	!	!	!	!	!	!	!
=41	=41	=41	=41	=41	=41	=41	=41	=41	=41	=41	=41	=41	=41	=41	=41	=41	=41	=41	=41	=41	=41	=41	=41	=41	=41	=41	=41	=41
*	*	*	*2\right	*	*	*	*	*	*	*	*	*	*	*	*	*	*	*	*	*	*	*	*	*	*	*	*	*
!LO:TX:rj:a:t=T&colon;	!	!	!	!	!	!	!LO:TX:a:t=P:problem: mixed beam	!LO:DY:a	!LO:TX:a:t=P:problem: mixed beam	!	!	!	!	!	!	!	!	!	!	!	!	!	!	!	!	!	!	!
4G\	n	f	2.g\	f	2.bn\	f	16g/LL	f	16g/LL	f	4G\	pec-	4Bn\	pec-	4g\	pec-	4gg\	pec-	4GG/	.	4G/	.	4g/	f	2.ryy	2.ryy	2.ryy	2.ryy
.	.	.	.	.	.	.	(16gg\	.	(16gg\	.	.	.	.	.	.	.	.	.	.	.	.	.	.	.	.	.	.	.
.	_	.	.	.	.	.	16ff#X\	.	16ff#X\	.	.	.	.	.	.	.	.	.	.	.	.	.	.	.	.	.	.	.
.	.	.	.	.	.	.	16gg\JJ)	.	16gg\JJ)	.	.	.	.	.	.	.	.	.	.	.	.	.	.	.	.	.	.	.
4GG/	.	.	.	.	.	.	(16aa-X\LL	.	(16aa-X\LL	.	4G\	-ca-	4B\	-ca-	4g\	-ca-	4gg\	-ca-	4r	.	4r	.	4r	.	.	.	.	.
.	.	.	.	.	.	.	16gg\	.	16gg\	.	.	.	.	.	.	.	.	.	.	.	.	.	.	.	.	.	.	.
.	.	.	.	.	.	.	16ff#X\	.	16ff#X\	.	.	.	.	.	.	.	.	.	.	.	.	.	.	.	.	.	.	.
.	.	.	.	.	.	.	16gg\JJ)	.	16gg\JJ)	.	.	.	.	.	.	.	.	.	.	.	.	.	.	.	.	.	.	.
4G\	.	.	.	.	.	.	(16aa-X\LL	.	(16aa-\LL	.	4G\	-ta	4B\	-ta	4g\	-ta	4gg\	-ta	4r	.	4r	.	4r	.	.	.	.	.
.	.	.	.	.	.	.	16gg\	.	16gg\	.	.	.	.	.	.	.	.	.	.	.	.	.	.	.	.	.	.	.
.	.	.	.	.	.	.	16ff#X\	.	16ff#X\	.	.	.	.	.	.	.	.	.	.	.	.	.	.	.	.	.	.	.
.	x	.	.	.	.	.	16gg\JJ)	.	16gg\JJ)	.	.	.	.	.	.	.	.	.	.	.	.	.	.	.	.	.	.	.
!	!	!	!	!	!LO:LB:g=original	!	!	!	!	!	!	!	!	!	!	!	!LO:LB:g=original	!	!	!	!	!	!LO:LB:g=original	!	!	!	!	!
=42	=42	=42	=42	=42	=42	=42	=42	=42	=42	=42	=42	=42	=42	=42	=42	=42	=42	=42	=42	=42	=42	=42	=42	=42	=42	=42	=42	=42
4G\	#7_ 4_	.	2.a-\	.	16an\LL	.	2.ff#X\	.	2.ff#X\	.	2G\	mun-	2c\	mun-	2an\	mun-	2ff#X\	mun-	4GG/	.	4G/	.	4g/	.	2.ryy	2.ryy	2.ryy	2.ryy
.	.	.	.	.	(16cc\	.	.	.	.	.	.	.	.	.	.	.	.	.	.	.	.	.	.	.	.	.	.	.
.	.	.	.	.	16bn\	.	.	.	.	.	.	.	.	.	.	.	.	.	.	.	.	.	.	.	.	.	.	.
.	.	.	.	.	16cc\JJ)	.	.	.	.	.	.	.	.	.	.	.	.	.	.	.	.	.	.	.	.	.	.	.
4GG/	.	.	.	.	(16dd\LL	.	.	.	.	.	.	.	.	.	.	.	.	.	4r	.	4r	.	4r	.	.	.	.	.
.	.	.	.	.	16cc\	.	.	.	.	.	.	.	.	.	.	.	.	.	.	.	.	.	.	.	.	.	.	.
.	.	.	.	.	16bn\)	.	.	.	.	.	.	.	.	.	.	.	.	.	.	.	.	.	.	.	.	.	.	.
.	.	.	.	.	16cc\JJ	.	.	.	.	.	.	.	.	.	.	.	.	.	.	.	.	.	.	.	.	.	.	.
4G\	.	.	.	.	(16dd\LL	.	.	.	.	.	4G\	-di	4c\	-di	4a\	-di	4ff#\	-di	4r	.	4r	.	4r	.	.	.	.	.
.	.	.	.	.	16cc\	.	.	.	.	.	.	.	.	.	.	.	.	.	.	.	.	.	.	.	.	.	.	.
.	.	.	.	.	16b\	.	.	.	.	.	.	.	.	.	.	.	.	.	.	.	.	.	.	.	.	.	.	.
.	.	.	.	.	16cc\JJ)	.	.	.	.	.	.	.	.	.	.	.	.	.	.	.	.	.	.	.	.	.	.	.
!	!	!	!	!	!	!	!	!	!	!	!	!	!	!	!LO:LB:g=original	!	!	!	!	!	!	!	!	!	!	!	!	!
=43	=43	=43	=43	=43	=43	=43	=43	=43	=43	=43	=43	=43	=43	=43	=43	=43	=43	=43	=43	=43	=43	=43	=43	=43	=43	=43	=43	=43
4G\	n7_ 3_	.	2.dd\	.	2.bn\	.	16dd\LL	.	16dd\LL	.	4G\	pec-	4d\	pec-	4bn\	pec-	4ffn\	pec-	4GG/	.	4G/	.	4g/	.	2.ryy	2.ryy	2.ryy	2.ryy
.	.	.	.	.	.	.	(16ffn\	.	(16ffn\	.	.	.	.	.	.	.	.	.	.	.	.	.	.	.	.	.	.	.
.	.	.	.	.	.	.	16een\)	.	16een\)	.	.	.	.	.	.	.	.	.	.	.	.	.	.	.	.	.	.	.
.	.	.	.	.	.	.	16ff\JJ	.	16ff\JJ	.	.	.	.	.	.	.	.	.	.	.	.	.	.	.	.	.	.	.
4GG/	.	.	.	.	.	.	(16gg\LL	.	(16gg\LL	.	4G\	-ca-	4d\	-ca-	4b\	-ca-	4ff\	-ca-	4r	.	4r	.	4r	.	.	.	.	.
.	.	.	.	.	.	.	16ff\	.	16ff\	.	.	.	.	.	.	.	.	.	.	.	.	.	.	.	.	.	.	.
.	.	.	.	.	.	.	16ee\	.	16ee\	.	.	.	.	.	.	.	.	.	.	.	.	.	.	.	.	.	.	.
.	.	.	.	.	.	.	16ff\JJ)	.	16ff\JJ)	.	.	.	.	.	.	.	.	.	.	.	.	.	.	.	.	.	.	.
4G\	.	.	.	.	.	.	(16gg\LL	.	(16gg\LL	.	4G\	-ta	4d\	-ta	4b\	-ta	4ff\	-ta	4r	.	4r	.	4r	.	.	.	.	.
.	.	.	.	.	.	.	16ff\	.	16ff\	.	.	.	.	.	.	.	.	.	.	.	.	.	.	.	.	.	.	.
.	.	.	.	.	.	.	16ee\	.	16ee\	.	.	.	.	.	.	.	.	.	.	.	.	.	.	.	.	.	.	.
.	x	.	.	.	.	.	16ff\JJ)	.	16ff\JJ)	.	.	.	.	.	.	.	.	.	.	.	.	.	.	.	.	.	.	.
!LO:LB:g=original	!	!	!	!	!	!	!	!	!	!	!	!	!	!	!	!	!	!	!LO:LB:g=original	!	!	!	!	!	!	!	!	!
=44	=44	=44	=44	=44	=44	=44	=44	=44	=44	=44	=44	=44	=44	=44	=44	=44	=44	=44	=44	=44	=44	=44	=44	=44	=44	=44	=44	=44
4G\	n6_ 4_	.	2.g\	.	16g\LL	.	2.een\	.	2.een\	.	2G\	mun-	2c\	mun-	2cc\	mun-	2een\	mun-	4GG/	.	4G/	.	4g/	.	2.ryy	2.ryy	2.ryy	2.ryy
.	.	.	.	.	(16cc\	.	.	.	.	.	.	.	.	.	.	.	.	.	.	.	.	.	.	.	.	.	.	.
.	.	.	.	.	16bn\	.	.	.	.	.	.	.	.	.	.	.	.	.	.	.	.	.	.	.	.	.	.	.
.	.	.	.	.	16cc\JJ)	.	.	.	.	.	.	.	.	.	.	.	.	.	.	.	.	.	.	.	.	.	.	.
4GG/	.	.	.	.	(16dd\LL	.	.	.	.	.	.	.	.	.	.	.	.	.	4r	.	4r	.	4r	.	.	.	.	.
.	.	.	.	.	16cc\	.	.	.	.	.	.	.	.	.	.	.	.	.	.	.	.	.	.	.	.	.	.	.
.	.	.	.	.	16b\	.	.	.	.	.	.	.	.	.	.	.	.	.	.	.	.	.	.	.	.	.	.	.
.	.	.	.	.	16cc\JJ)	.	.	.	.	.	.	.	.	.	.	.	.	.	.	.	.	.	.	.	.	.	.	.
!	!	!	!	!	!LO:TX:a:t=P:problem: mixed beam	!	!	!	!	!	!	!	!	!	!	!	!	!	!	!	!	!	!	!	!	!	!	!
4G\	.	.	.	.	16c/LL	.	.	.	.	.	4G\	-di	4c\	-di	4cc\	-di	4ee\	-di	4r	.	4r	.	4r	.	.	.	.	.
.	.	.	.	.	(16cc\	.	.	.	.	.	.	.	.	.	.	.	.	.	.	.	.	.	.	.	.	.	.	.
.	.	.	.	.	16b\	.	.	.	.	.	.	.	.	.	.	.	.	.	.	.	.	.	.	.	.	.	.	.
.	.	.	.	.	16cc\JJ)	.	.	.	.	.	.	.	.	.	.	.	.	.	.	.	.	.	.	.	.	.	.	.
!	!	!	!	!	!	!	!LO:LB:g=original	!	!	!	!LO:LB:g=original	!	!	!	!	!	!	!	!	!	!	!	!	!	!	!	!	!
=45	=45	=45	=45	=45	=45	=45	=45	=45	=45	=45	=45	=45	=45	=45	=45	=45	=45	=45	=45	=45	=45	=45	=45	=45	=45	=45	=45	=45
!	!	!	!	!	!	!	!	!	!	!	!	!	!	!	!	!	!	!	!	!	!LO:TX:a:t=5.	!	!LO:TX:a:t=5.	!	!	!	!	!
!	!	!	!	!	!	!	!	!	!	!	!	!	!	!	!	!	!	!	!LO:N:vis=00	!	!LO:N:vis=00	!	!LO:N:vis=00	!	!	!	!	!
2A-X\	-5 3	.	2f#X\	.	16r	.	16r	.	16r	.	2A-\	mi-	2c\	mi-	2f#X\	mi-	2ee-X\	mi-	0.r	.	0.r	.	0.r	.	2.ryy	2.ryy	2.ryy	2.ryy
.	.	.	.	.	16cc\LL	.	(16ee-X\LL	.	(16ee-X\LL	.	.	.	.	.	.	.	.	.	.	.	.	.	.	.	.	.	.	.
.	.	.	.	.	16bn\	.	16dd\	.	16dd\	.	.	.	.	.	.	.	.	.	.	.	.	.	.	.	.	.	.	.
.	.	.	.	.	16cc\JJ	.	16ee-\JJ)	.	16ee-\JJ)	.	.	.	.	.	.	.	.	.	.	.	.	.	.	.	.	.	.	.
.	.	.	.	.	(16b\LL	.	16dd\LL	.	16dd\LL	.	.	.	.	.	.	.	.	.	.	.	.	.	.	.	.	.	.	.
.	.	.	.	.	16cc\	.	(16ee-\	.	(16ee-\	.	.	.	.	.	.	.	.	.	.	.	.	.	.	.	.	.	.	.
.	.	.	.	.	16b\	.	16dd\	.	16dd\	.	.	.	.	.	.	.	.	.	.	.	.	.	.	.	.	.	.	.
.	.	.	.	.	16cc\JJ	.	16ee-\JJ)	.	16ee-\JJ)	.	.	.	.	.	.	.	.	.	.	.	.	.	.	.	.	.	.	.
4G\	-6 4	.	4g\	.	16b\LL	.	(16dd\LL	.	(16dd\LL	.	4G\	-se-	4c\	-se-	4g\	-se-	4ee-\	-se-	.	.	.	.	.	.	.	.	.	.
.	.	.	.	.	16cc\	.	16ee-\	.	16ee-\	.	.	.	.	.	.	.	.	.	.	.	.	.	.	.	.	.	.	.
.	.	.	.	.	16b\)	.	16dd\	.	16dd\	.	.	.	.	.	.	.	.	.	.	.	.	.	.	.	.	.	.	.
.	.	.	.	.	16cc\JJ	.	16ee-\JJ)	.	16ee-\JJ)	.	.	.	.	.	.	.	.	.	.	.	.	.	.	.	.	.	.	.
!	!	!	!LO:LB:g=original	!	!	!	!	!	!LO:LB:g=original	!	!	!	!LO:LB:g=original	!	!	!	!	!	!	!	!	!	!	!	!	!	!	!
=46	=46	=46	=46	=46	=46	=46	=46	=46	=46	=46	=46	=46	=46	=46	=46	=46	=46	=46	=46	=46	=46	=46	=46	=46	=46	=46	=46	=46
2F#X\	-7 5 n	.	2an\	.	16r	.	16r	.	16r	.	2F#X\	-re-	2c\	-re-	2an\	-re-	2ee-\	-re-	.	.	.	.	.	.	2.ryy	2.ryy	2.ryy	2.ryy
.	.	.	.	.	(16cc\LL	.	(16ee-\LL	.	(16ee-\LL	.	.	.	.	.	.	.	.	.	.	.	.	.	.	.	.	.	.	.
.	.	.	.	.	16bn\	.	16dd\	.	16dd\	.	.	.	.	.	.	.	.	.	.	.	.	.	.	.	.	.	.	.
.	.	.	.	.	16cc\JJ)	.	16ee-\JJ)	.	16ee-\JJ)	.	.	.	.	.	.	.	.	.	.	.	.	.	.	.	.	.	.	.
!	!	!	!	!	!LO:LB:g=original	!	!	!	!	!	!	!	!	!	!	!	!	!	!	!	!	!	!	!	!	!	!	!
.	.	.	.	.	(16b\LL	.	(16dd\LL	.	(16dd\LL	.	.	.	.	.	.	.	.	.	.	.	.	.	.	.	.	.	.	.
.	.	.	.	.	16cc\	.	16ee-\	.	16ee-\	.	.	.	.	.	.	.	.	.	.	.	.	.	.	.	.	.	.	.
.	.	.	.	.	16b\	.	16dd\	.	16dd\	.	.	.	.	.	.	.	.	.	.	.	.	.	.	.	.	.	.	.
.	.	.	.	.	16cc\JJ)	.	16ee-\JJ)	.	16ee-\JJ)	.	.	.	.	.	.	.	.	.	.	.	.	.	.	.	.	.	.	.
!	!	!	!	!	!LO:TX:a:t=|:problem	!	!	!	!LO:TX:a:t=|:problem	!	!	!	!	!	!	!	!	!	!	!	!	!	!	!	!	!	!	!
4G\	6 4	.	4g\	.	16ee-\LL	.	16ccc\LL	.	16ccc\LL	.	4G\	-re	4c\	-re	4g\	-re	4ee-\	-re	.	.	.	.	.	.	.	.	.	.
.	.	.	.	.	(16cc\	.	(16ee-\	.	(16ee-\	.	.	.	.	.	.	.	.	.	.	.	.	.	.	.	.	.	.	.
.	.	.	.	.	16b\	.	16dd\	.	16dd\	.	.	.	.	.	.	.	.	.	.	.	.	.	.	.	.	.	.	.
.	.	.	.	.	16cc\JJ)	.	16ee-\JJ)	.	16ee-\JJ)	.	.	.	.	.	.	.	.	.	.	.	.	.	.	.	.	.	.	.
=47	=47	=47	=47	=47	=47	=47	=47	=47	=47	=47	=47	=47	=47	=47	=47	=47	=47	=47	=47	=47	=47	=47	=47	=47	=47	=47	=47	=47
2A-X\	6 5 3	.	2f#X\	.	16r	.	16r	.	16r	.	2A-X\	mi-	2c\	mi-	2f#X\	mi-	2ee-\	mi-	.	.	.	.	.	.	2.ryy	2.ryy	2.ryy	2.ryy
.	.	.	.	.	(16cc\LL	.	(16ee-\LL	.	(16ee-\LL	.	.	.	.	.	.	.	.	.	.	.	.	.	.	.	.	.	.	.
.	.	.	.	.	16bn\	.	16dd\	.	16dd\	.	.	.	.	.	.	.	.	.	.	.	.	.	.	.	.	.	.	.
.	.	.	.	.	16cc\JJ)	.	16ee-\JJ)	.	16ee-\JJ)	.	.	.	.	.	.	.	.	.	.	.	.	.	.	.	.	.	.	.
.	.	.	.	.	(16b\LL	.	(16dd\LL	.	(16dd\LL	.	.	.	.	.	.	.	.	.	.	.	.	.	.	.	.	.	.	.
.	.	.	.	.	16cc\	.	16ee-\	.	16ee-\	.	.	.	.	.	.	.	.	.	.	.	.	.	.	.	.	.	.	.
.	.	.	.	.	16b\	.	16dd\	.	16dd\	.	.	.	.	.	.	.	.	.	.	.	.	.	.	.	.	.	.	.
.	.	.	.	.	16cc\JJ)	.	16ee-\JJ)	.	16ee-\JJ)	.	.	.	.	.	.	.	.	.	.	.	.	.	.	.	.	.	.	.
4G\	6 4	.	4g\	.	(16b\LL	.	(16dd\LL	.	(16dd\LL	.	4G\	-se-	4c\	-se-	4g\	-se-	4ee-\	-se-	.	.	.	.	.	.	.	.	.	.
.	.	.	.	.	16cc\	.	16ee-\	.	16ee-\	.	.	.	.	.	.	.	.	.	.	.	.	.	.	.	.	.	.	.
.	.	.	.	.	16b\	.	16dd\	.	16dd\	.	.	.	.	.	.	.	.	.	.	.	.	.	.	.	.	.	.	.
.	.	.	.	.	16cc\JJ)	.	16ee-\JJ)	.	16ee-\JJ)	.	.	.	.	.	.	.	.	.	.	.	.	.	.	.	.	.	.	.
=48	=48	=48	=48	=48	=48	=48	=48	=48	=48	=48	=48	=48	=48	=48	=48	=48	=48	=48	=48	=48	=48	=48	=48	=48	=48	=48	=48	=48
2F#X\	7 5 n	.	2an\	.	16r	.	16r	.	16r	.	2F#X\	-re-	2c\	-re-	2an\	-re-	2ee-\	-re-	.	.	.	.	.	.	2.ryy	2.ryy	2.ryy	2.ryy
.	.	.	.	.	(16cc\LL	.	(16ee-\LL	.	(16ee-\LL	.	.	.	.	.	.	.	.	.	.	.	.	.	.	.	.	.	.	.
.	.	.	.	.	16bn\	.	16dd\	.	16dd\	.	.	.	.	.	.	.	.	.	.	.	.	.	.	.	.	.	.	.
.	.	.	.	.	16cc\JJ)	.	16ee-\JJ)	.	16ee-\JJ)	.	.	.	.	.	.	.	.	.	.	.	.	.	.	.	.	.	.	.
.	.	.	.	.	(16b\LL	.	(16dd\LL	.	(16dd\LL	.	.	.	.	.	.	.	.	.	.	.	.	.	.	.	.	.	.	.
.	.	.	.	.	16cc\	.	16ee-\	.	16ee-\	.	.	.	.	.	.	.	.	.	.	.	.	.	.	.	.	.	.	.
.	.	.	.	.	16b\	.	16dd\	.	16dd\	.	.	.	.	.	.	.	.	.	.	.	.	.	.	.	.	.	.	.
.	.	.	.	.	16cc\JJ)	.	16ee-\JJ)	.	16ee-\JJ)	.	.	.	.	.	.	.	.	.	.	.	.	.	.	.	.	.	.	.
!	!	!	!	!	!LO:TX:a:t=|:problem	!	!LO:TX:a:t=|:problem	!	!LO:TX:a:t=|:problem	!	!	!	!	!	!	!	!	!	!	!	!	!	!	!	!	!	!	!
4G\	6 4	.	4g\	.	16ee-\LL	.	16ccc\LL	.	16ccc\LL	.	4G\	-re	4c\	-re	4g\	-re	4ee-\	-re	.	.	.	.	.	.	.	.	.	.
.	.	.	.	.	(16cc\	.	(16ee-\	.	(16ee-\	.	.	.	.	.	.	.	.	.	.	.	.	.	.	.	.	.	.	.
.	.	.	.	.	16b\	.	16dd\	.	16dd\	.	.	.	.	.	.	.	.	.	.	.	.	.	.	.	.	.	.	.
.	.	.	.	.	16cc\JJ)	.	16ee-\JJ)	.	16ee-\JJ)	.	.	.	.	.	.	.	.	.	.	.	.	.	.	.	.	.	.	.
!	!	!	!	!	!	!	!LO:LB:g=original	!	!	!	!	!	!	!	!	!	!	!	!	!	!LO:LB:g=original	!	!	!	!	!	!	!
=49	=49	=49	=49	=49	=49	=49	=49	=49	=49	=49	=49	=49	=49	=49	=49	=49	=49	=49	=49	=49	=49	=49	=49	=49	=49	=49	=49	=49
2A-X\	6 5 3	.	2f#X\	.	16r	.	16r	.	16r	.	2A-X\	no-	2c\	no-	2f#X\	no-	2ee-\	no-	2.r	.	2.r	.	2.r	.	2.ryy	2.ryy	2.ryy	2.ryy
.	.	.	.	.	(16cc\LL	.	(16ee-\LL	.	(16ee-\LL	.	.	.	.	.	.	.	.	.	.	.	.	.	.	.	.	.	.	.
.	.	.	.	.	16bn\	.	16dd\	.	16dd\	.	.	.	.	.	.	.	.	.	.	.	.	.	.	.	.	.	.	.
.	.	.	.	.	16cc\JJ)	.	16ee-\JJ)	.	16ee-\JJ)	.	.	.	.	.	.	.	.	.	.	.	.	.	.	.	.	.	.	.
.	.	.	.	.	16b\LL	.	(16dd\LL	.	(16dd\LL	.	.	.	.	.	.	.	.	.	.	.	.	.	.	.	.	.	.	.
.	.	.	.	.	(16cc\	.	16ee-\	.	16ee-\	.	.	.	.	.	.	.	.	.	.	.	.	.	.	.	.	.	.	.
.	.	.	.	.	16b\	.	16dd\	.	16dd\	.	.	.	.	.	.	.	.	.	.	.	.	.	.	.	.	.	.	.
.	.	.	.	.	16cc\JJ)	.	16ee-\JJ)	.	16ee-\JJ)	.	.	.	.	.	.	.	.	.	.	.	.	.	.	.	.	.	.	.
!	!	!	!	!	!LO:TX:a:t=|:problem	!	!LO:TX:a:t=|:problem	!	!LO:TX:a:t=|:problem	!	!	!	!	!	!	!	!	!	!	!	!	!	!	!	!	!	!	!
4F#X\	7 5 n	.	4an\	.	16ee-\LL	.	16ccc\LL	.	16ccc\LL	.	4F#X\	.	8c\L	.	4g\	.	8ee-\L	.	.	.	.	.	.	.	.	.	.	.
.	.	.	.	.	(16cc\	.	(16ee-\	.	(16ee-\	.	.	.	.	.	.	.	.	.	.	.	.	.	.	.	.	.	.	.
.	.	.	.	.	16b\	.	16dd\	.	16dd\	.	.	.	8e-X\J	.	.	.	8cc\J	.	.	.	.	.	.	.	.	.	.	.
.	.	.	.	.	16cc\JJ)	.	16ee-\JJ)	.	16ee-\JJ)	.	.	.	.	.	.	.	.	.	.	.	.	.	.	.	.	.	.	.
!	!	!	!	!	!LO:LB:g=original	!	!	!	!	!	!	!	!	!	!LO:LB:g=original	!	!	!	!	!	!	!	!	!	!	!	!	!
=50	=50	=50	=50	=50	=50	=50	=50	=50	=50	=50	=50	=50	=50	=50	=50	=50	=50	=50	=50	=50	=50	=50	=50	=50	=50	=50	=50	=50
4G\	n	.	4g\	.	4bn\	.	4dd\	.	4dd\	.	4G\	-bis	4d\	-bis	4g\	-bis	4bn\	-bis	4GG/	.	4G/	.	4g/	.	2.ryy	2.ryy	2.ryy	2.ryy
4r	.	.	4r	.	4r	.	(16aa-X\LL	p	(16aa-X\LL	p	4r	.	4r	.	4r	.	4r	.	4r	.	4r	.	4r	.	.	.	.	.
.	.	.	.	.	.	.	16gg\	.	16gg\	.	.	.	.	.	.	.	.	.	.	.	.	.	.	.	.	.	.	.
.	.	.	.	.	.	.	16ff#X\	.	16ff#X\	.	.	.	.	.	.	.	.	.	.	.	.	.	.	.	.	.	.	.
.	.	.	.	.	.	.	16gg\JJ)	.	16gg\JJ)	.	.	.	.	.	.	.	.	.	.	.	.	.	.	.	.	.	.	.
4r	.	.	4r	.	4r	.	(16gg\LL	.	(16gg\LL	.	4r	.	4r	.	4r	.	4r	.	4r	.	4r	.	4r	.	.	.	.	.
.	.	.	.	.	.	.	16bbn\	.	16bbn\	.	.	.	.	.	.	.	.	.	.	.	.	.	.	.	.	.	.	.
.	.	.	.	.	.	.	16bb\)	.	16bb\)	.	.	.	.	.	.	.	.	.	.	.	.	.	.	.	.	.	.	.
.	.	.	.	.	.	.	16ddd\JJ	.	16ddd\JJ	.	.	.	.	.	.	.	.	.	.	.	.	.	.	.	.	.	.	.
!	!	!	!	!	!	!	!	!	!	!	!	!	!	!	!	!	!LO:LB:g=original	!	!	!	!	!	!	!	!	!	!	!
=51	=51	=51	=51	=51	=51	=51	=51	=51	=51	=51	=51	=51	=51	=51	=51	=51	=51	=51	=51	=51	=51	=51	=51	=51	=51	=51	=51	=51
16r	.	.	16r	.	16r	.	4G/	.	4G/	.	4r	.	4r	.	4r	.	4r	.	8r	.	8r	.	8r	.	2.ryy	2.ryy	2.ryy	2.ryy
16GG/LL	n	.	16G/LL	.	16G/LL	.	.	.	.	.	.	.	.	.	.	.	.	.	.	.	.	.	.	.	.	.	.	.
16BBn/	.	.	16Bn/	.	16Bn/	.	.	.	.	.	.	.	.	.	.	.	.	.	16GG/LL	.	8G/	.	16g/LL	.	.	.	.	.
16D/JJ	.	.	16d/JJ	.	16d/JJ	.	.	.	.	.	.	.	.	.	.	.	.	.	16GG/JJ	.	.	.	16g/JJ	.	.	.	.	.
4G\	.	.	4g\	.	4g/	.	16r	f	16r	.	4G\	mi-	4d\	mi-	4d\	mi-	4b-\	mi-	4GG/	.	4G/	.	4g/	.	.	.	.	.
!	!	!	!	!	!	!	!	!	!LO:TX:a:t=|:problem	!	!	!	!	!	!	!	!	!	!	!	!	!	!	!	!	!	!	!
.	.	.	.	.	.	.	16bn\LL	.	16bn\LL	.	.	.	.	.	.	.	.	.	.	.	.	.	.	.	.	.	.	.
!	!	!	!	!	!	!	!	!	!LO:TX:a:t=|:problem	!	!	!	!	!	!	!	!	!	!	!	!	!	!	!	!	!	!	!
.	.	.	.	.	.	.	16dd\	.	16dd\	.	.	.	.	.	.	.	.	.	.	.	.	.	.	.	.	.	.	.
!	!	!	!	!	!	!	!	!	!LO:TX:a:t=|:problem	!	!	!	!	!	!	!	!	!	!	!	!	!	!	!	!	!	!	!
.	.	.	.	.	.	.	16ff\JJ	.	16ff\JJ	.	.	.	.	.	.	.	.	.	.	.	.	.	.	.	.	.	.	.
!	!	!	!	!	!	!	!	!	!LO:TX:a:t=|:problem	!	!	!	!	!	!	!	!	!	!	!	!	!	!	!	!	!	!	!
4Fn\	2	.	4d\	.	8r	.	(16aa-X\LL	f	16aa-X\LL	f	4Fn\	-se-	4d\	-se-	4d\	-se-	4b-\	-se-	4r	.	4r	.	4r	.	.	.	.	.
!	!	!	!	!	!	!	!	!	!LO:TX:a:t=|:problem	!	!	!	!	!	!	!	!	!	!	!	!	!	!	!	!	!	!	!
.	.	.	.	.	.	.	16bn\)	.	16bn\	.	.	.	.	.	.	.	.	.	.	.	.	.	.	.	.	.	.	.
!	!	!	!	!	!	!	!	!	!LO:TX:a:t=|:problem	!	!	!	!	!	!	!	!	!	!	!	!	!	!	!	!	!	!	!
.	.	.	.	.	8g/	.	16b~\	.	16b\	.	.	.	.	.	.	.	.	.	.	.	.	.	.	.	.	.	.	.
!	!	!	!	!	!	!	!	!	!LO:TX:a:t=|:problem	!	!	!	!	!	!	!	!	!	!	!	!	!	!	!	!	!	!	!
.	.	.	.	.	.	.	16b~\JJ	.	16b\JJ	.	.	.	.	.	.	.	.	.	.	.	.	.	.	.	.	.	.	.
!LO:LB:g=original	!	!	!LO:LB:g=original	!	!	!	!	!	!LO:LB:g=original	!	!	!	!LO:LB:g=original	!	!	!	!	!	!	!	!	!	!	!	!	!	!	!
=52	=52	=52	=52	=52	=52	=52	=52	=52	=52	=52	=52	=52	=52	=52	=52	=52	=52	=52	=52	=52	=52	=52	=52	=52	=52	=52	=52	=52
!LO:TX:a:t=P:problem: mixed beam	!	!	!	!	!	!	!	!	!	!	!	!	!	!	!	!	!	!LO:N:vis=00	!	!	!	!	!	!	!	!	!	!
8E-\L	6	.	8c/L	.	8g/L	.	(16cc/LL	.	(16cc/LL	.	8E-\	-re-	8e-\	-re-	8g\	-re-	8cc\	-re-	0.r	.	2.r	.	2.r	.	2.ryy	2.ryy	2.ryy	2.ryy
.	.	.	.	.	.	.	16g/	.	16g/	.	.	.	.	.	.	.	.	.	.	.	.	.	.	.	.	.	.	.
8F\	.	.	8A-/J	.	16c/L	.	16a-X/	.	16a-/	.	8F\	-re	8d\	-re	8a-X\	-re	8dd\	-re	.	.	.	.	.	.	.	.	.	.
.	.	.	.	.	16d/JJ	.	16f/JJ)	.	16f/JJ)	.	.	.	.	.	.	.	.	.	.	.	.	.	.	.	.	.	.	.
!	!	!	!	!	!	!	!	!	!	!	!LO:LB:g=original	!	!	!	!	!	!	!	!	!	!	!	!	!	!	!	!	!
8G\	6 4	.	8G/L	.	8c/L	.	4e-/	.	4e-/	.	4G\	no-	4e-\	no-	4e-\	no-	4cc\	no-	.	.	.	.	.	.	.	.	.	.
8G\	.	.	8G/	.	8c/J	.	.	.	.	.	.	.	.	.	.	.	.	.	.	.	.	.	.	.	.	.	.	.
8GG/	n	.	8G/	.	8Bn/L	.	4dt/	.	4dt/	.	4GG/	.	4d\	.	4d\	.	4b-\	.	.	.	.	.	.	.	.	.	.	.
8GG/J	.	.	8G/J	.	8B/J	.	.	.	.	.	.	.	.	.	.	.	.	.	.	.	.	.	.	.	.	.	.	.
!	!	!	!	!	!	!	!LO:PB:g=original	!	!	!	!	!	!	!	!	!	!	!	!	!	!	!	!	!	!	!	!	!
=53	=53	=53	=53	=53	=53	=53	=53	=53	=53	=53	=53	=53	=53	=53	=53	=53	=53	=53	=53	=53	=53	=53	=53	=53	=53	=53	=53	=53
!	!	!	!	!	!	!	!	!	!	!	!	!	!	!	!	!	!	!	!	!	!	!LO:DY:a	!	!	!	!	!	!
4C/	.	.	4G/	.	4c/	.	4c/	.	4c/	.	4C/	-bis	4c\	-bis	4c\	-bis	4cc\	-bis	.	.	4r	p	4r	.	2.ryy	2.ryy	2.ryy	2.ryy
!LO:TX:a:t=Solo.	!	!	!	!	!	!	!	!LO:DY:a	!	!LO:DY:a	!	!	!	!	!	!	!	!	!	!	!	!	!	!	!	!	!	!
4c\	.	mf	4G/	.	4c/	.	4e-/	mf	4e-/	mf	4c\	A-	4c\	A-	4g\	A-	4ee-\	A-	.	.	4G/	.	4g/	p	.	.	.	.
!	!	!	!	!	!	!LO:DY:a	!	!	!	!	!	!	!	!	!	!	!	!	!	!	!	!	!	!	!	!	!	!
4c\	.	.	4G/	mf	4c/	mf	4e-/	.	4e-/	.	4c\	-gnus	4c\	-gnus	4g\	-gnus	4ee-\	-gnus	.	.	4G/	.	4g/	.	.	.	.	.
=54	=54	=54	=54	=54	=54	=54	=54	=54	=54	=54	=54	=54	=54	=54	=54	=54	=54	=54	=54	=54	=54	=54	=54	=54	=54	=54	=54	=54
4Bn\	6 5	.	4G/	.	4d/	.	4f/	.	4f/	.	4Bn\	De-	4d\	De-	4g\	De-	4ff\	De-	.	.	4G/	.	4g/	.	2.ryy	2.ryy	2.ryy	2.ryy
!	!	!	!	!	!	!	!LO:TX:a:t=P:problem: mixed beam	!	!LO:TX:a:t=P:problem: mixed beam	!	!	!	!	!	!	!	!	!	!	!	!	!	!	!	!	!	!	!
4c\	.	.	4G/	.	8c/L	.	8e-/L	.	8e-/L	.	4c\	-i	4c\	-i	4g\	-i	4ee-\	-i	.	.	4G/	.	4g/	.	.	.	.	.
!	!	!	!	!	!LO:TX:b:t=|:problem	!	!LO:TX:a:t=|:problem	!	!LO:TX:a:t=|:problem	!	!	!	!	!	!	!	!	!	!	!	!	!	!	!	!	!	!	!
.	.	.	.	.	8g/	p	8gg\	p	8gg\	p	.	.	.	.	.	.	.	.	.	.	.	.	.	.	.	.	.	.
!	!	!	!	!LO:DY:rj	!LO:TX:b:t=|:problem	!	!LO:TX:a:t=|:problem	!	!LO:TX:a:t=|:problem	!	!	!	!	!	!	!	!	!	!	!	!	!	!	!	!	!	!	!
4r	.	.	4C/	p	8e-/	.	8ee-\	.	8ee-\	.	4r	.	4r	.	4r	.	4r	.	.	.	4r	.	4r	.	.	.	.	.
!	!	!	!	!	!LO:TX:b:t=|:problem	!	!LO:TX:a:t=|:problem	!	!LO:TX:a:t=|:problem	!	!	!	!	!	!	!	!	!	!	!	!	!	!	!	!	!	!	!
.	.	.	.	.	8c/J	.	8cc\J	.	8cc\J	.	.	.	.	.	.	.	.	.	.	.	.	.	.	.	.	.	.	.
!	!	!	!	!	!	!	!	!	!	!	!	!	!	!	!	!	!	!	!	!	!	!	!LO:LB:g=original	!	!	!	!	!
=55	=55	=55	=55	=55	=55	=55	=55	=55	=55	=55	=55	=55	=55	=55	=55	=55	=55	=55	=55	=55	=55	=55	=55	=55	=55	=55	=55	=55
4r	.	.	4G/	.	(8Bn/L	.	(8bn\L	.	(8bn\L	.	4r	.	4r	.	4r	.	4r	.	.	.	4r	.	4r	.	2.ryy	2.ryy	2.ryy	2.ryy
.	.	.	.	.	8d/J)	.	8dd\J)	.	8dd\J)	.	.	.	.	.	.	.	.	.	.	.	.	.	.	.	.	.	.	.
4r	.	.	4C/	.	4c/	.	4cc\	.	4cc\	.	4r	.	4r	.	4r	.	4r	.	.	.	4r	.	4r	.	.	.	.	.
!	!	!	!	!	!	!LO:DY:a	!	!LO:DY:a	!	!LO:DY:a	!	!	!	!	!	!	!	!	!	!	!	!	!	!	!	!	!	!
4c\	.	.	4G/	mf	4c/	mf	4e-/	mf	4e-/	mf	4c\	qui	4c\	qui	4g\	qui	4ee-\	qui	.	.	4G/	.	4g/	.	.	.	.	.
!	!	!	!	!	!	!	!	!	!	!	!	!	!	!	!LO:LB:g=original	!	!	!	!	!	!	!	!	!	!	!	!	!
=56	=56	=56	=56	=56	=56	=56	=56	=56	=56	=56	=56	=56	=56	=56	=56	=56	=56	=56	=56	=56	=56	=56	=56	=56	=56	=56	=56	=56
!	!	!	!	!	!	!	!	!	!	!	!	!	!	!	!	!	!	!	!LO:N:vis=0	!	!	!	!	!	!	!	!	!
4Bn\	6 5	.	4G/	.	4d/	.	4f/	.	4f/	.	4Bn\	tol-	4d\	tol-	4g\	tol-	4ff\	tol-	1.r	.	4G/	.	4g/	.	2.ryy	2.ryy	2.ryy	2.ryy
!	!	!	!	!	!	!	!LO:TX:a:t=P:problem: mixed beam	!	!LO:TX:a:t=P:problem: mixed beam	!	!	!	!	!	!	!	!	!	!	!	!	!	!	!	!	!	!	!
4c\	.	.	4G/	.	8c/L	.	8e-/L	.	8e-/L	.	4c\	-lis	4c\	-lis	4g\	-lis	4ee-\	-lis	.	.	4G/	.	4g/	.	.	.	.	.
!	!	!	!	!	!LO:TX:b:t=|:problem	!	!LO:TX:a:t=|:problem	!	!LO:TX:a:t=|:problem	!	!	!	!	!	!	!	!	!	!	!	!	!	!	!	!	!	!	!
.	.	.	.	.	8g/	p	8gg\	p	8gg\	p	.	.	.	.	.	.	.	.	.	.	.	.	.	.	.	.	.	.
!	!	!	!	!LO:DY:rj	!LO:TX:b:t=|:problem	!	!LO:TX:a:t=|:problem	!	!LO:TX:a:t=|:problem	!	!	!	!	!	!	!	!	!	!	!	!	!	!	!	!	!	!	!
4r	.	.	4C/	p	8e-/	.	8ee-\	.	8ee-\	.	4r	.	4r	.	4r	.	4r	.	.	.	4r	.	4r	.	.	.	.	.
!	!	!	!	!	!LO:TX:b:t=|:problem	!	!LO:TX:a:t=|:problem	!	!LO:TX:a:t=|:problem	!	!	!	!	!	!	!	!	!	!	!	!	!	!	!	!	!	!	!
.	.	.	.	.	8c/J	.	8cc\J	.	8cc\J	.	.	.	.	.	.	.	.	.	.	.	.	.	.	.	.	.	.	.
!	!	!	!	!	!LO:LB:g=original	!	!	!	!	!	!	!	!LO:LB:g=original	!	!	!	!	!	!	!	!	!	!	!	!	!	!	!
=57	=57	=57	=57	=57	=57	=57	=57	=57	=57	=57	=57	=57	=57	=57	=57	=57	=57	=57	=57	=57	=57	=57	=57	=57	=57	=57	=57	=57
2.r	.	.	4G/	.	(8Bn/L	.	8bn\L	.	(8bn\L	.	2.r	.	2.r	.	2.r	.	2.r	.	.	.	2.r	.	2.r	.	2.ryy	2.ryy	2.ryy	2.ryy
.	.	.	.	.	8d/J)	.	8dd\J	.	8dd\J)	.	.	.	.	.	.	.	.	.	.	.	.	.	.	.	.	.	.	.
!	!	!	!	!	!	!	!LO:TX:a:t=|:problem	!	!	!	!	!	!	!	!	!	!	!	!	!	!	!	!	!	!	!	!	!
.	.	.	4C/	.	4c/	.	8cc\	.	8cc\L	.	.	.	.	.	.	.	.	.	.	.	.	.	.	.	.	.	.	.
!	!	!	!	!	!	!	!LO:TX:a:t=|:problem	!	!	!	!	!	!	!	!	!	!	!	!	!	!	!	!	!	!	!	!	!
.	.	.	.	.	.	.	8ccc\L	f	8ccc\	.	.	.	.	.	.	.	.	.	.	.	.	.	.	.	.	.	.	.
!	!	!	!	!	!	!	!LO:TX:a:t=|:problem	!	!	!	!	!	!	!	!	!	!	!	!	!	!	!	!	!	!	!	!	!
.	.	.	4r	.	4r	.	8ccc\	.	8ccc\	f	.	.	.	.	.	.	.	.	.	.	.	.	.	.	.	.	.	.
!	!	!	!	!	!	!	!LO:TX:a:t=|:problem	!	!	!	!	!	!	!	!	!	!	!	!	!	!	!	!	!	!	!	!	!
.	.	.	.	.	.	.	8ccc\J	.	8ccc\J	.	.	.	.	.	.	.	.	.	.	.	.	.	.	.	.	.	.	.
!	!	!	!LO:LB:g=original	!	!	!	!	!	!	!	!LO:LB:g=original	!	!	!	!	!	!LO:LB:g=original	!	!	!	!LO:LB:g=original	!	!	!	!	!	!	!
=58	=58	=58	=58	=58	=58	=58	=58	=58	=58	=58	=58	=58	=58	=58	=58	=58	=58	=58	=58	=58	=58	=58	=58	=58	=58	=58	=58	=58
!LO:TX:a:t=T&colon;	!	!	!	!	!	!	!	!	!	!	!	!	!	!	!	!	!	!	!	!	!	!	!	!	!	!	!	!
8r	.	f	8r	.	16r	f	8ccc\L	.	8ccc\L	.	8r	.	8r	.	8r	.	8r	.	8r	.	8r	f	8r	f	2.ryy	2.ryy	2.ryy	2.ryy
!	!	!	!	!	!LO:TX:a:t=|:problem	!	!	!	!	!	!	!	!	!	!	!	!	!	!	!	!	!	!	!	!	!	!	!
.	.	.	.	.	16cc\LL	.	.	.	.	.	.	.	.	.	.	.	.	.	.	.	.	.	.	.	.	.	.	.
8A-X\L	6\	.	8A-X/	f	(16dd\	.	8ff#X\	.	8ff#X\	.	8A-X\	pec-	8c\	pec-	8f#X\	pec-	8cc\	pec-	8C/L	.	8c/L	.	8cc\L	.	.	.	.	.
.	.	.	.	.	16ee-\JJ)	.	.	.	.	.	.	.	.	.	.	.	.	.	.	.	.	.	.	.	.	.	.	.
8A-\	.	.	8A-/L	.	(16ee-\LL	.	8ff#\	.	8ff#\	.	8A-\	-ca-	8c\	-ca-	8f#\	-ca-	8cc\	-ca-	8C/	.	8c/	.	8cc\	.	.	.	.	.
.	.	.	.	.	16dd\	.	.	.	.	.	.	.	.	.	.	.	.	.	.	.	.	.	.	.	.	.	.	.
8A-\	.	.	8A-/	.	16dd\	.	8ff#\	.	8ff#\	.	8A-\	-ta	8c\	-ta	8f#\	-ta	8cc\	-ta	8C/	.	8c/	.	8cc\	.	.	.	.	.
.	.	.	.	.	16cc\JJ)	.	.	.	.	.	.	.	.	.	.	.	.	.	.	.	.	.	.	.	.	.	.	.
8A-\	.	.	8A-/	.	(16ee-\LL	.	8ff#\	.	8ff#\	.	4A-\	mun-	4c\	mun-	4f#\	mun-	4cc\	mun-	8C/	.	8c/	.	8cc\	.	.	.	.	.
.	.	.	.	.	16dd\	.	.	.	.	.	.	.	.	.	.	.	.	.	.	.	.	.	.	.	.	.	.	.
8A-\J	.	.	8A-/J	.	16dd\	.	8ff#\J	.	8ff#\J	.	.	.	.	.	.	.	.	.	8C/J	.	8c/J	.	8cc\J	.	.	.	.	.
.	.	.	.	.	16cc\JJ)	.	.	.	.	.	.	.	.	.	.	.	.	.	.	.	.	.	.	.	.	.	.	.
=59	=59	=59	=59	=59	=59	=59	=59	=59	=59	=59	=59	=59	=59	=59	=59	=59	=59	=59	=59	=59	=59	=59	=59	=59	=59	=59	=59	=59
!	!	!	!	!	!	!	!	!	!	!	!	!	!	!	!	!	!	!	!	!	!LO:TX:b:t=Dona&colon; V&colon; S&colon;	!	!	!	!	!	!	!
2.G;\	n	.	2.G;/	.	2.bn;\	.	2.gg;\	.	2.gg;\	.	2.G;\	-di.	2.d;\	-di.	2.g;\	-di.	2.bn;\	-di.	2GG/	.	2.G;/	.	2.dd;\	.	2.ryy	2.ryy	2.ryy	2.ryy
.	.	.	.	.	.	.	.	.	.	.	.	.	.	.	.	.	.	.	4r	.	.	.	.	.	.	.	.	.
!	!	!	!LO:TX:t=Dona&colon; V&colon; S&colon;	!	!	!	!	!	!	!	!	!	!	!	!	!	!	!	!	!	!	!	!LO:TX:b:t=Dona&colon; V&colon; S&colon;	!	!	!	!	!
==	==	==	==	==	==	==	==	==	==	==	==	==	==	==	==	==	==	==	==	==	==	==	==	==	==	==	==	==
*-	*-	*-	*-	*-	*-	*-	*-	*-	*-	*-	*-	*-	*-	*-	*-	*-	*-	*-	*-	*-	*-	*-	*-	*-	*-	*-	*-	*-
!!!system-decoration: [(s1,s2)][(s3,s4,s5,s6)][(s7)][(s8,s9,s10,s11)][(s12,s13,s14,s15)]s16
!!!RDF**kern: > = above
!!!RDF**kern: < = below
!!!RDF**dynam: p = "p:"
!!!RDF**dynam: f = "f:"
!!!RDF**dynam: mf = "mf:"
!!!RDF**dynam: < = cres
!!!EED: Leszek Kubiak
!!!EST: 2021-01-11
!!!ENC: Jozajtis Berenika
!!!END: 2021-01-07
